(GCode generated by: DrawingBotV3 Free 1.6.21 Stable)
(Time: 2024-12-09 at 13:35:23 CET)
G21 (programming in millimeters, mm)
G90 (programming in absolute positioning)
G28 (auto homing)
G1 F8000 (set speed)
G0 Z1


G0 X47.934 Y4.959
G1 Z0

G1 X47.107 Y5.372
G1 X47.521 Y3.306
G1 X57.438 Y4.132
G1 X56.612 Y6.198
G1 X54.959 Y5.785
G1 X48.347 Y4.545
G1 X40.496 Y5.372
G1 X49.174 Y2.479
G1 X55.785 Y2.479
G1 X59.917 Y8.678
G1 X59.504 Y4.132
G1 X63.223 Y9.091
G1 X60.331 Y8.264
G1 X60.331 Y5.785
G1 X61.570 Y8.264
G1 X60.331 Y8.678
G1 X66.529 Y12.810
G1 X69.421 Y15.289
G1 X65.702 Y7.851
G1 X63.636 Y10.331
G1 X67.355 Y12.810
G1 X63.223 Y8.678
G1 X62.397 Y5.785
G1 X60.744 Y5.372
G1 X54.132 Y5.372
G1 X48.347 Y3.719
G1 X47.521 Y3.719
G1 X44.628 Y4.545
G1 X47.107 Y.826
G1 X56.198 Y.826
G1 X56.612 Y1.653
G1 X58.678 Y4.959
G1 X52.066 Y4.545
G1 X49.587 Y2.893
G1 X53.306 Y3.306
G1 X55.785 Y3.306
G1 X56.198 Y4.545
G1 X57.025 Y5.372
G1 X56.198 Y6.612
G1 X54.132 Y7.438
G0 Z1

G0 X53.719 Y7.025
G1 Z0

G1 X53.306 Y8.678
G1 X57.851 Y10.744
G1 X59.504 Y10.744
G1 X57.851 Y9.504
G1 X58.264 Y8.678
G1 X56.612 Y9.504
G1 X54.545 Y9.917
G1 X54.959 Y9.091
G1 X56.198 Y8.678
G1 X57.851 Y7.438
G1 X57.438 Y2.479
G1 X59.504 Y4.959
G1 X58.678 Y5.372
G1 X57.851 Y5.785
G1 X54.959 Y3.306
G1 X55.372 Y.826
G1 X57.025 Y.826
G1 X57.851 Y1.240
G1 X58.264 Y2.893
G1 X60.744 Y4.959
G1 X60.331 Y4.132
G1 X61.570 Y2.893
G1 X61.157 Y5.785
G1 X59.504 Y5.785
G1 X58.264 Y6.612
G1 X58.264 Y7.851
G1 X60.331 Y8.264
G1 X59.917 Y7.025
G1 X59.504 Y7.851
G1 X60.331 Y7.438
G1 X62.810 Y8.678
G1 X61.983 Y7.851
G1 X65.702 Y7.438
G1 X69.008 Y7.438
G1 X70.661 Y8.264
G1 X67.769 Y6.198
G1 X66.116 Y7.025
G1 X69.835 Y8.678
G1 X69.421 Y10.331
G1 X67.769 Y14.463
G1 X71.074 Y11.570
G1 X69.421 Y11.983
G1 X71.901 Y10.331
G1 X74.380 Y6.198
G1 X71.901 Y4.132
G1 X72.727 Y2.479
G1 X72.314 Y1.653
G1 X70.248 Y.826
G1 X67.769 Y1.240
G1 X70.248 Y5.372
G1 X71.488 Y4.545
G1 X71.074 Y3.306
G1 X72.727 Y4.132
G1 X72.314 Y2.893
G1 X70.248 Y3.306
G1 X68.595 Y5.372
G1 X68.182 Y6.198
G1 X69.008 Y5.372
G1 X69.835 Y6.612
G1 X73.140 Y4.545
G1 X72.314 Y5.785
G1 X72.727 Y7.025
G1 X71.901 Y7.025
G1 X70.661 Y5.785
G1 X71.074 Y4.959
G1 X71.488 Y6.198
G1 X62.810 Y18.595
G1 X63.223 Y19.421
G1 X64.050 Y21.901
G1 X63.223 Y23.140
G1 X64.050 Y22.727
G1 X64.876 Y23.554
G1 X65.702 Y21.074
G1 X66.942 Y20.661
G1 X69.421 Y17.769
G1 X68.595 Y16.529
G1 X68.595 Y19.835
G1 X69.421 Y21.074
G1 X66.942 Y20.248
G1 X65.702 Y16.529
G1 X64.463 Y20.661
G1 X61.570 Y19.835
G1 X61.983 Y19.008
G1 X63.636 Y18.595
G1 X63.636 Y19.835
G1 X64.463 Y19.835
G1 X64.876 Y21.074
G1 X64.463 Y21.901
G1 X65.702 Y23.554
G1 X60.744 Y31.818
G1 X59.504 Y30.579
G1 X60.331 Y31.818
G1 X59.504 Y31.405
G1 X62.810 Y31.405
G1 X62.810 Y32.645
G1 X60.744 Y32.231
G1 X61.570 Y31.818
G1 X64.050 Y33.058
G1 X59.504 Y35.537
G1 X59.091 Y34.711
G1 X49.174 Y29.752
G1 X47.107 Y31.405
G1 X49.587 Y30.992
G1 X53.306 Y32.231
G1 X52.893 Y33.058
G1 X54.959 Y31.405
G1 X54.132 Y31.818
G1 X53.306 Y29.752
G1 X52.066 Y31.405
G1 X50.413 Y30.992
G1 X53.719 Y23.554
G1 X52.479 Y24.793
G1 X54.545 Y23.967
G1 X55.785 Y24.380
G1 X57.851 Y25.620
G1 X56.612 Y26.860
G1 X56.612 Y28.926
G1 X55.372 Y30.165
G1 X56.198 Y30.579
G1 X54.545 Y28.512
G1 X56.198 Y28.512
G1 X55.372 Y28.099
G1 X53.719 Y25.207
G1 X53.719 Y30.165
G1 X50.826 Y33.884
G1 X52.066 Y34.711
G1 X52.893 Y34.711
G1 X53.719 Y36.364
G1 X54.545 Y36.364
G1 X53.719 Y34.711
G1 X56.198 Y33.884
G1 X55.785 Y34.711
G1 X56.612 Y34.711
G1 X55.785 Y35.950
G1 X54.959 Y35.950
G1 X50.826 Y32.645
G1 X49.174 Y32.645
G1 X50.413 Y34.711
G1 X52.479 Y35.950
G1 X50.826 Y36.777
G1 X49.174 Y36.364
G1 X48.347 Y36.777
G1 X45.455 Y37.190
G1 X46.694 Y35.537
G1 X45.041 Y35.950
G1 X43.802 Y35.950
G1 X43.388 Y35.124
G1 X42.975 Y35.950
G1 X43.802 Y29.339
G1 X45.041 Y29.339
G1 X46.281 Y29.752
G1 X47.107 Y30.992
G1 X46.281 Y25.620
G1 X48.347 Y26.033
G1 X50.000 Y26.033
G1 X52.893 Y29.339
G1 X53.719 Y28.512
G1 X52.479 Y28.099
G1 X52.893 Y26.860
G1 X53.306 Y25.207
G1 X52.066 Y25.207
G1 X51.653 Y23.140
G1 X46.694 Y22.314
G1 X44.215 Y22.314
G1 X41.736 Y23.554
G1 X42.562 Y31.405
G1 X41.736 Y29.339
G1 X39.669 Y28.926
G1 X40.909 Y30.579
G1 X40.083 Y30.992
G1 X41.322 Y31.818
G1 X40.496 Y32.645
G1 X40.083 Y31.818
G1 X34.711 Y38.017
G1 X34.298 Y39.256
G1 X38.017 Y42.975
G1 X38.843 Y42.149
G1 X39.669 Y42.975
G1 X36.364 Y54.545
G1 X36.777 Y55.785
G1 X38.843 Y58.264
G1 X40.083 Y57.851
G1 X40.496 Y57.025
G1 X39.669 Y57.438
G1 X37.190 Y54.545
G1 X35.950 Y52.893
G1 X35.950 Y54.132
G1 X35.124 Y54.959
G1 X36.777 Y56.612
G1 X35.950 Y57.025
G1 X34.298 Y57.438
G1 X37.190 Y59.091
G1 X35.537 Y59.504
G1 X36.777 Y60.331
G1 X35.950 Y60.744
G1 X35.124 Y61.157
G1 X33.471 Y59.504
G1 X32.231 Y59.504
G1 X28.926 Y60.744
G1 X26.446 Y62.810
G1 X26.860 Y57.438
G1 X28.512 Y57.025
G1 X28.512 Y58.264
G1 X30.992 Y57.438
G1 X32.231 Y58.264
G1 X33.471 Y57.851
G1 X33.058 Y57.025
G1 X32.231 Y56.612
G1 X31.405 Y57.025
G1 X33.058 Y50.000
G1 X35.124 Y50.413
G1 X36.777 Y51.653
G1 X33.884 Y50.826
G1 X31.405 Y50.413
G1 X32.231 Y51.653
G1 X30.579 Y52.893
G1 X30.165 Y52.066
G1 X30.992 Y52.893
G1 X43.802 Y52.893
G1 X44.215 Y53.719
G1 X42.975 Y53.719
G1 X43.388 Y52.479
G1 X41.736 Y52.479
G1 X41.322 Y54.545
G1 X39.669 Y55.372
G1 X38.017 Y51.240
G1 X38.843 Y51.240
G1 X40.909 Y51.240
G1 X38.017 Y49.587
G1 X29.752 Y46.281
G1 X30.165 Y48.760
G1 X31.818 Y48.347
G1 X30.165 Y46.694
G1 X30.579 Y47.934
G1 X32.231 Y47.521
G1 X33.471 Y46.694
G1 X29.752 Y45.868
G1 X30.992 Y38.843
G1 X33.058 Y38.017
G1 X34.298 Y38.017
G1 X31.818 Y35.950
G1 X31.818 Y34.711
G1 X32.645 Y33.471
G1 X33.884 Y35.537
G1 X35.124 Y35.950
G1 X37.190 Y30.165
G1 X37.190 Y31.818
G1 X41.322 Y37.603
G1 X43.388 Y37.190
G1 X42.562 Y39.256
G1 X38.430 Y36.777
G1 X37.190 Y36.364
G1 X37.190 Y33.884
G1 X36.364 Y35.537
G1 X35.537 Y35.950
G1 X35.950 Y37.603
G1 X37.603 Y38.017
G1 X36.364 Y38.843
G1 X35.124 Y38.843
G1 X30.992 Y42.149
G1 X30.992 Y40.909
G1 X31.818 Y38.843
G1 X33.058 Y40.909
G1 X35.124 Y40.909
G1 X37.603 Y42.975
G1 X41.736 Y49.174
G1 X42.562 Y46.694
G1 X41.322 Y46.281
G1 X40.909 Y45.041
G1 X41.736 Y45.868
G1 X42.562 Y45.455
G1 X44.215 Y44.628
G1 X44.215 Y45.868
G1 X46.694 Y55.785
G1 X45.041 Y54.132
G1 X44.628 Y57.438
G1 X43.388 Y56.612
G1 X43.802 Y55.372
G1 X41.322 Y57.438
G1 X42.149 Y57.438
G1 X44.628 Y58.264
G1 X45.455 Y58.264
G1 X45.455 Y56.612
G1 X45.868 Y55.785
G1 X46.694 Y58.264
G1 X49.587 Y61.570
G1 X42.562 Y61.157
G1 X40.083 Y59.504
G1 X41.322 Y58.678
G1 X42.562 Y59.504
G1 X44.215 Y59.917
G1 X45.041 Y60.744
G1 X48.347 Y60.744
G1 X49.587 Y59.917
G1 X50.826 Y59.504
G1 X48.347 Y58.678
G1 X47.521 Y59.504
G1 X46.694 Y59.504
G1 X42.562 Y59.091
G1 X41.322 Y61.157
G1 X40.496 Y61.570
G1 X38.430 Y59.091
G1 X38.017 Y60.744
G1 X38.430 Y59.917
G1 X36.364 Y57.851
G1 X38.843 Y57.025
G1 X40.083 Y56.198
G1 X36.364 Y61.570
G1 X38.017 Y61.983
G1 X38.843 Y61.157
G1 X41.322 Y63.223
G1 X38.843 Y62.810
G1 X36.364 Y64.876
G1 X36.777 Y69.835
G1 X38.430 Y69.835
G1 X42.975 Y76.033
G1 X40.083 Y76.033
G1 X38.843 Y72.314
G1 X39.669 Y72.727
G1 X49.587 Y69.835
G1 X52.066 Y70.661
G1 X54.545 Y78.099
G1 X53.719 Y77.686
G1 X54.545 Y72.727
G1 X57.438 Y73.554
G1 X54.545 Y76.860
G1 X55.372 Y73.554
G1 X56.612 Y73.554
G1 X55.785 Y73.967
G1 X57.438 Y75.620
G1 X56.198 Y77.273
G1 X57.025 Y79.752
G1 X55.372 Y78.512
G1 X54.132 Y80.579
G1 X54.132 Y79.752
G1 X50.413 Y74.793
G1 X42.975 Y76.446
G1 X39.256 Y77.273
G1 X40.496 Y81.818
G1 X34.298 Y90.496
G1 X35.537 Y90.496
G1 X35.950 Y89.669
G1 X35.124 Y88.843
G1 X35.950 Y87.603
G1 X34.298 Y87.603
G1 X34.298 Y81.818
G1 X35.124 Y84.711
G1 X35.537 Y86.364
G1 X37.603 Y85.537
G1 X36.364 Y83.884
G1 X36.364 Y85.537
G1 X38.017 Y83.471
G1 X36.777 Y78.926
G1 X37.190 Y76.446
G1 X35.537 Y78.512
G1 X35.124 Y76.033
G1 X33.884 Y78.512
G1 X34.298 Y80.165
G1 X37.190 Y83.471
G1 X36.777 Y79.752
G1 X40.083 Y73.140
G1 X50.000 Y70.248
G1 X52.066 Y75.207
G1 X47.107 Y71.488
G1 X55.372 Y69.421
G1 X53.306 Y72.727
G1 X53.306 Y70.248
G1 X56.198 Y70.661
G1 X57.438 Y69.421
G1 X55.372 Y70.248
G1 X55.372 Y71.488
G1 X59.917 Y70.661
G1 X59.917 Y69.835
G1 X58.678 Y69.421
G1 X58.678 Y70.248
G1 X57.851 Y70.661
G1 X60.331 Y75.620
G1 X61.983 Y73.554
G1 X61.983 Y72.727
G1 X62.810 Y73.140
G1 X61.570 Y71.488
G1 X59.091 Y71.074
G1 X59.504 Y71.901
G1 X60.331 Y71.488
G1 X66.942 Y79.752
G1 X65.289 Y83.058
G1 X66.116 Y81.818
G1 X66.116 Y79.339
G1 X65.289 Y78.099
G1 X64.463 Y78.926
G1 X64.876 Y79.752
G1 X65.289 Y82.231
G1 X64.876 Y81.405
G1 X64.050 Y82.645
G1 X62.397 Y88.017
G1 X60.331 Y88.017
G1 X60.744 Y81.818
G1 X60.331 Y80.992
G1 X61.157 Y80.579
G1 X59.504 Y76.860
G1 X62.397 Y76.446
G1 X63.223 Y78.099
G1 X59.917 Y76.033
G1 X61.570 Y76.033
G1 X61.570 Y74.793
G1 X62.810 Y75.207
G1 X61.983 Y73.967
G1 X66.529 Y74.380
G1 X67.355 Y76.033
G1 X65.289 Y76.860
G1 X66.116 Y75.207
G1 X65.289 Y75.207
G1 X76.033 Y68.182
G1 X69.008 Y69.421
G1 X69.421 Y70.661
G1 X69.008 Y74.793
G1 X70.248 Y72.314
G1 X71.488 Y73.140
G1 X71.488 Y71.488
G1 X72.727 Y71.901
G1 X78.512 Y73.967
G1 X78.099 Y75.207
G1 X77.273 Y75.207
G1 X75.620 Y77.273
G1 X73.554 Y75.620
G1 X75.207 Y75.620
G1 X73.967 Y76.446
G1 X72.727 Y77.686
G1 X73.967 Y78.099
G1 X74.380 Y79.339
G1 X72.727 Y79.339
G1 X77.273 Y83.884
G1 X76.033 Y80.992
G1 X75.207 Y80.579
G1 X76.033 Y79.752
G1 X74.793 Y79.339
G1 X69.835 Y88.017
G1 X71.074 Y88.430
G1 X70.661 Y90.496
G1 X71.488 Y90.909
G1 X71.074 Y93.388
G1 X70.248 Y90.909
G1 X71.488 Y90.496
G1 X72.314 Y91.322
G1 X72.727 Y90.083
G1 X73.554 Y89.669
G1 X73.967 Y85.124
G1 X75.620 Y86.364
G1 X76.446 Y86.777
G1 X75.620 Y85.124
G1 X76.033 Y83.471
G1 X76.859 Y84.298
G1 X78.926 Y75.620
G1 X78.926 Y76.446
G1 X71.488 Y78.512
G1 X67.769 Y71.074
G1 X70.661 Y74.380
G1 X73.140 Y73.140
G1 X72.314 Y70.248
G1 X73.554 Y69.835
G1 X70.248 Y66.116
G1 X80.992 Y58.678
G1 X77.273 Y57.438
G1 X78.926 Y65.702
G1 X78.926 Y67.769
G1 X78.099 Y68.595
G1 X78.926 Y64.463
G1 X73.967 Y67.355
G1 X71.488 Y63.223
G1 X71.488 Y64.876
G1 X73.140 Y67.355
G1 X76.033 Y75.207
G1 X76.033 Y78.512
G1 X71.488 Y79.752
G1 X69.421 Y80.165
G1 X68.595 Y76.033
G1 X65.289 Y73.967
G1 X66.942 Y73.554
G1 X69.008 Y71.901
G1 X69.835 Y68.182
G1 X71.488 Y66.942
G1 X73.140 Y68.182
G1 X75.207 Y64.876
G1 X80.992 Y55.372
G1 X81.818 Y57.025
G1 X80.579 Y56.612
G1 X79.752 Y55.785
G1 X78.512 Y56.198
G1 X76.859 Y57.438
G1 X77.273 Y59.917
G1 X80.992 Y60.744
G1 X81.818 Y58.678
G1 X80.579 Y58.264
G1 X78.926 Y59.504
G1 X77.686 Y57.851
G1 X78.099 Y59.504
G1 X71.901 Y54.959
G1 X73.140 Y54.132
G1 X73.140 Y63.636
G1 X70.248 Y59.504
G1 X70.248 Y65.289
G1 X71.074 Y63.636
G1 X70.661 Y60.744
G1 X67.769 Y60.744
G1 X64.463 Y61.570
G1 X69.835 Y64.463
G1 X66.529 Y68.182
G1 X68.595 Y71.488
G1 X68.182 Y66.942
G1 X69.835 Y65.289
G1 X69.835 Y67.769
G1 X72.727 Y69.835
G1 X69.421 Y71.074
G1 X69.008 Y73.140
G1 X66.529 Y75.620
G1 X68.182 Y80.992
G1 X75.207 Y80.992
G1 X76.033 Y79.339
G1 X73.554 Y80.579
G1 X71.901 Y85.537
G1 X66.942 Y92.149
G1 X66.942 Y90.496
G1 X70.661 Y86.777
G1 X64.463 Y73.554
G1 X67.769 Y71.901
G1 X66.116 Y69.008
G1 X65.289 Y68.595
G1 X66.942 Y71.074
G1 X63.223 Y73.554
G1 X62.397 Y73.140
G1 X66.116 Y84.711
G1 X57.851 Y94.628
G1 X54.959 Y96.694
G1 X55.372 Y98.347
G1 X61.157 Y94.628
G1 X59.091 Y95.041
G1 X57.438 Y92.562
G1 X44.628 Y94.215
G1 X44.215 Y97.934
G1 X50.000 Y97.934
G1 X48.760 Y95.455
G1 X46.281 Y97.107
G1 X49.174 Y97.521
G1 X47.521 Y95.868
G1 X45.868 Y96.281
G1 X39.669 Y96.694
G1 X40.083 Y97.934
G1 X36.364 Y97.521
G1 X34.711 Y96.281
G1 X33.058 Y95.868
G1 X31.818 Y94.215
G1 X47.107 Y95.041
G1 X53.306 Y95.041
G1 X52.893 Y93.388
G1 X57.851 Y93.802
G1 X60.331 Y89.669
G1 X64.876 Y95.868
G1 X66.529 Y94.628
G1 X67.355 Y95.455
G1 X68.182 Y95.041
G1 X69.008 Y94.215
G1 X69.835 Y94.215
G1 X66.116 Y96.694
G1 X66.116 Y89.256
G1 X63.636 Y92.975
G1 X64.463 Y94.628
G1 X63.223 Y95.455
G1 X62.397 Y93.388
G1 X61.157 Y95.041
G1 X58.264 Y98.760
G1 X57.851 Y97.934
G1 X58.678 Y97.521
G1 X56.612 Y96.281
G1 X57.851 Y95.455
G1 X67.355 Y85.950
G1 X66.942 Y79.339
G1 X63.223 Y74.380
G1 X66.529 Y81.405
G1 X66.529 Y83.884
G1 X66.942 Y88.843
G1 X69.835 Y87.190
G1 X72.727 Y81.405
G1 X68.595 Y81.405
G1 X70.248 Y75.207
G1 X73.967 Y74.380
G1 X73.140 Y70.248
G1 X70.661 Y72.314
G1 X69.835 Y74.380
G1 X72.727 Y72.727
G1 X69.835 Y70.661
G1 X69.835 Y69.835
G1 X71.901 Y70.661
G1 X72.314 Y71.901
G1 X71.074 Y72.314
G1 X70.661 Y73.554
G1 X71.901 Y72.727
G1 X73.140 Y73.967
G1 X75.620 Y71.901
G1 X75.207 Y71.074
G1 X76.033 Y64.050
G1 X78.512 Y65.289
G1 X77.686 Y65.702
G1 X76.859 Y69.421
G1 X78.512 Y69.835
G1 X78.512 Y68.595
G1 X78.099 Y69.421
G1 X76.446 Y67.769
G1 X76.033 Y66.529
G1 X76.859 Y66.116
G1 X78.099 Y67.355
G1 X78.099 Y62.810
G1 X76.446 Y63.223
G1 X78.512 Y60.744
G1 X78.512 Y62.397
G1 X70.661 Y59.091
G1 X72.727 Y62.397
G1 X72.314 Y60.331
G1 X71.901 Y56.612
G1 X72.314 Y57.438
G1 X71.901 Y59.091
G1 X62.397 Y55.372
G1 X61.570 Y56.198
G1 X63.636 Y56.198
G1 X64.463 Y55.785
G1 X65.289 Y55.372
G1 X69.008 Y53.306
G1 X69.835 Y52.479
G1 X69.008 Y51.240
G1 X70.248 Y51.653
G1 X73.967 Y50.000
G1 X74.793 Y43.388
G1 X71.488 Y39.669
G1 X72.314 Y38.430
G1 X75.207 Y36.364
G1 X72.314 Y35.950
G1 X73.554 Y35.537
G1 X74.380 Y34.298
G1 X75.207 Y34.711
G1 X73.967 Y32.645
G1 X69.835 Y28.512
G1 X69.835 Y27.686
G1 X70.661 Y25.207
G1 X69.835 Y23.554
G1 X70.661 Y23.140
G1 X69.835 Y21.488
G1 X68.182 Y19.835
G1 X67.769 Y21.488
G1 X66.116 Y19.008
G1 X65.702 Y16.116
G1 X64.463 Y15.702
G1 X62.810 Y16.116
G1 X62.397 Y14.050
G1 X63.223 Y15.702
G1 X64.050 Y15.289
G1 X64.876 Y14.876
G1 X64.050 Y19.008
G1 X64.876 Y25.207
G1 X64.050 Y25.207
G1 X65.289 Y26.033
G1 X66.116 Y20.661
G1 X65.289 Y19.421
G1 X65.289 Y18.182
G1 X66.529 Y16.529
G1 X69.008 Y19.421
G1 X69.421 Y17.355
G1 X70.248 Y18.595
G1 X71.074 Y21.901
G1 X69.835 Y20.248
G1 X68.182 Y22.314
G1 X67.769 Y23.967
G1 X72.727 Y20.248
G1 X73.140 Y21.074
G1 X72.727 Y22.727
G1 X73.967 Y21.488
G1 X73.554 Y19.008
G1 X72.314 Y18.595
G1 X73.967 Y16.116
G1 X73.967 Y17.769
G1 X70.248 Y16.116
G1 X70.661 Y17.769
G1 X67.355 Y13.223
G1 X68.182 Y11.983
G1 X67.769 Y13.223
G1 X66.529 Y15.289
G1 X67.769 Y17.355
G1 X68.182 Y15.289
G1 X69.835 Y16.942
G1 X73.554 Y14.463
G1 X72.314 Y14.050
G1 X73.140 Y8.264
G1 X70.661 Y10.331
G1 X71.488 Y7.438
G1 X72.727 Y6.612
G1 X71.074 Y6.612
G1 X67.355 Y1.653
G1 X71.901 Y1.240
G1 X69.421 Y3.306
G1 X69.835 Y1.653
G1 X68.182 Y4.545
G1 X68.182 Y3.306
G1 X66.942 Y2.893
G1 X64.050 Y3.306
G1 X64.463 Y.826
G1 X67.355 Y1.240
G1 X71.488 Y.826
G1 X72.314 Y.826
G1 X72.314 Y2.479
G1 X72.314 Y4.959
G1 X70.661 Y5.372
G1 X71.488 Y3.306
G1 X71.488 Y4.959
G1 X70.661 Y4.545
G1 X69.835 Y3.306
G1 X70.661 Y1.653
G1 X65.289 Y4.132
G1 X61.157 Y10.331
G1 X59.091 Y8.264
G1 X59.091 Y3.306
G1 X57.025 Y3.719
G1 X54.545 Y4.959
G1 X53.719 Y4.959
G1 X57.025 Y5.785
G1 X57.025 Y7.438
G1 X57.025 Y9.091
G1 X58.264 Y5.372
G1 X60.744 Y6.612
G1 X60.331 Y9.917
G1 X59.504 Y9.917
G1 X59.917 Y8.264
G1 X59.091 Y6.198
G1 X59.504 Y9.091
G1 X59.504 Y10.331
G1 X57.851 Y10.331
G1 X57.438 Y9.504
G1 X57.438 Y8.264
G1 X58.678 Y9.917
G1 X58.678 Y6.198
G1 X57.851 Y4.132
G1 X58.678 Y3.719
G1 X62.397 Y6.612
G1 X61.570 Y6.198
G1 X63.636 Y8.264
G1 X67.355 Y5.372
G1 X65.289 Y4.959
G1 X64.050 Y6.612
G1 X65.289 Y6.612
G1 X64.463 Y7.025
G1 X63.636 Y7.851
G1 X64.876 Y9.504
G1 X64.463 Y10.331
G1 X65.289 Y10.744
G1 X66.529 Y9.504
G1 X64.050 Y14.463
G1 X64.876 Y15.289
G1 X63.636 Y14.876
G0 Z1

G0 X63.223 Y14.463
G1 Z0

G1 X62.810 Y15.702
G1 X64.463 Y12.397
G1 X63.636 Y13.223
G1 X62.397 Y10.331
G1 X64.050 Y9.091
G1 X64.876 Y9.917
G1 X66.116 Y9.504
G1 X66.529 Y7.851
G1 X65.702 Y9.091
G1 X64.876 Y8.678
G1 X64.876 Y9.504
G1 X58.264 Y14.050
G1 X57.438 Y16.529
G1 X59.091 Y14.463
G1 X59.091 Y16.116
G1 X61.157 Y12.397
G1 X64.050 Y11.570
G1 X63.223 Y12.810
G1 X61.983 Y12.810
G1 X59.917 Y15.289
G1 X61.983 Y15.702
G1 X60.331 Y17.769
G1 X58.678 Y20.248
G1 X57.025 Y18.182
G1 X56.198 Y18.595
G1 X55.785 Y17.355
G1 X53.306 Y19.008
G1 X45.868 Y19.008
G1 X44.215 Y14.876
G1 X42.149 Y15.702
G1 X39.669 Y12.810
G1 X40.496 Y11.157
G1 X41.736 Y12.397
G1 X41.736 Y11.157
G1 X44.628 Y9.917
G1 X47.934 Y9.091
G1 X47.107 Y8.678
G1 X49.587 Y8.678
G1 X52.066 Y8.264
G1 X53.719 Y7.025
G0 Z1

G0 X53.306 Y6.612
G1 Z0

G1 X56.612 Y7.851
G1 X56.612 Y7.025
G1 X55.372 Y6.198
G1 X58.264 Y6.198
G1 X61.983 Y4.132
G1 X59.504 Y2.893
G1 X59.504 Y3.719
G1 X60.331 Y2.893
G1 X57.851 Y1.653
G1 X55.372 Y4.959
G1 X56.612 Y5.372
G1 X55.785 Y5.785
G1 X46.281 Y7.851
G1 X41.322 Y7.438
G1 X42.975 Y7.025
G1 X41.322 Y4.132
G1 X39.669 Y4.959
G1 X40.083 Y5.785
G1 X39.256 Y6.198
G1 X35.950 Y10.744
G1 X35.537 Y9.917
G1 X31.818 Y8.678
G1 X31.405 Y9.504
G1 X30.579 Y9.091
G1 X29.752 Y4.959
G1 X29.752 Y2.893
G1 X28.926 Y4.545
G1 X29.339 Y8.264
G1 X38.017 Y5.785
G1 X43.388 Y1.653
G1 X46.281 Y1.653
G1 X44.628 Y3.306
G1 X43.388 Y2.479
G1 X42.975 Y3.719
G1 X41.322 Y3.719
G1 X42.149 Y4.545
G1 X43.802 Y7.438
G1 X45.455 Y6.198
G1 X43.388 Y6.198
G1 X40.909 Y6.198
G1 X33.471 Y7.438
G1 X34.298 Y8.678
G1 X35.124 Y7.438
G1 X28.926 Y11.157
G1 X31.405 Y10.744
G1 X29.339 Y11.983
G1 X28.926 Y12.810
G1 X33.058 Y11.157
G1 X33.471 Y14.876
G1 X26.446 Y23.554
G1 X27.686 Y21.901
G1 X29.752 Y23.554
G1 X29.752 Y22.727
G1 X28.926 Y25.207
G1 X29.752 Y24.793
G1 X29.752 Y28.099
G1 X27.686 Y31.818
G1 X26.860 Y30.579
G1 X26.860 Y31.405
G1 X22.727 Y28.512
G1 X23.967 Y24.793
G1 X23.554 Y23.967
G1 X24.380 Y24.793
G1 X24.380 Y26.033
G1 X23.140 Y24.380
G1 X23.140 Y25.620
G1 X22.314 Y25.620
G1 X26.446 Y20.661
G1 X24.793 Y19.421
G1 X24.793 Y16.116
G1 X26.033 Y16.529
G1 X24.793 Y15.289
G1 X24.793 Y13.636
G1 X26.033 Y14.463
G1 X25.620 Y11.983
G1 X26.860 Y11.570
G1 X26.446 Y10.744
G1 X25.620 Y10.331
G1 X26.033 Y11.157
G1 X28.512 Y21.074
G1 X29.339 Y20.661
G1 X29.339 Y16.529
G1 X28.099 Y16.116
G1 X28.926 Y13.636
G1 X26.860 Y11.157
G1 X26.446 Y9.917
G1 X26.033 Y9.091
G1 X25.207 Y10.331
G1 X24.793 Y12.397
G1 X22.727 Y11.570
G1 X20.661 Y10.331
G1 X21.488 Y10.331
G1 X28.512 Y6.198
G1 X28.099 Y8.264
G1 X29.339 Y10.744
G1 X28.099 Y10.744
G1 X28.512 Y12.810
G1 X27.686 Y11.570
G1 X26.860 Y13.223
G1 X27.686 Y15.289
G1 X29.752 Y15.289
G1 X29.752 Y16.942
G1 X32.645 Y15.702
G1 X31.405 Y13.636
G1 X31.405 Y14.876
G1 X30.992 Y13.636
G1 X32.231 Y12.810
G1 X44.628 Y15.289
G1 X43.802 Y15.702
G1 X42.975 Y15.702
G1 X42.149 Y13.636
G1 X41.736 Y14.463
G1 X31.405 Y21.901
G1 X31.405 Y21.074
G1 X32.231 Y16.116
G1 X23.967 Y21.901
G1 X23.967 Y23.140
G1 X24.793 Y22.314
G1 X24.793 Y26.860
G1 X27.686 Y25.207
G1 X26.860 Y21.901
G1 X28.099 Y21.074
G1 X28.512 Y22.314
G1 X28.512 Y26.860
G1 X22.314 Y32.231
G1 X21.901 Y30.579
G1 X22.314 Y31.405
G1 X22.314 Y30.579
G1 X25.620 Y33.058
G1 X25.620 Y31.405
G1 X23.554 Y29.339
G1 X22.727 Y35.537
G1 X23.967 Y36.364
G1 X22.727 Y37.603
G1 X26.033 Y40.083
G1 X25.207 Y37.603
G1 X26.860 Y36.364
G1 X29.752 Y35.537
G1 X28.099 Y33.884
G1 X30.579 Y33.058
G1 X31.818 Y34.298
G1 X33.471 Y33.471
G1 X34.711 Y34.711
G1 X36.364 Y33.884
G1 X33.884 Y35.124
G1 X35.124 Y33.058
G1 X38.843 Y42.975
G1 X38.843 Y44.215
G1 X33.884 Y52.479
G1 X39.256 Y52.479
G1 X39.669 Y51.653
G1 X41.322 Y52.066
G1 X45.041 Y50.000
G1 X38.430 Y40.083
G1 X38.017 Y38.430
G1 X39.256 Y40.083
G1 X42.149 Y44.628
G1 X42.149 Y41.322
G1 X39.256 Y38.843
G1 X41.736 Y43.388
G1 X41.322 Y40.909
G1 X39.669 Y38.017
G1 X39.256 Y39.669
G1 X38.017 Y41.322
G1 X38.017 Y42.149
G1 X36.777 Y41.322
G1 X35.950 Y42.149
G1 X35.950 Y48.347
G1 X33.471 Y48.760
G1 X38.017 Y52.066
G1 X37.190 Y50.826
G1 X37.190 Y50.000
G1 X35.950 Y50.000
G1 X36.364 Y49.174
G1 X37.190 Y47.934
G1 X37.603 Y49.174
G1 X39.256 Y48.760
G1 X40.083 Y45.455
G1 X39.669 Y44.628
G1 X40.909 Y50.413
G1 X40.083 Y50.413
G1 X40.083 Y47.521
G1 X38.843 Y50.826
G1 X38.017 Y50.826
G1 X39.256 Y46.281
G1 X32.645 Y46.281
G1 X29.752 Y44.628
G1 X33.884 Y43.388
G1 X35.950 Y40.496
G1 X37.603 Y40.909
G1 X38.017 Y39.669
G1 X32.645 Y39.669
G1 X31.405 Y41.322
G1 X31.818 Y39.669
G1 X33.471 Y39.256
G1 X30.579 Y43.802
G1 X31.405 Y43.802
G1 X32.645 Y45.868
G1 X34.711 Y45.041
G1 X33.471 Y41.322
G1 X31.818 Y43.388
G1 X33.471 Y42.562
G1 X34.298 Y45.868
G1 X35.537 Y45.868
G1 X35.537 Y41.736
G1 X34.711 Y42.975
G1 X35.124 Y45.041
G1 X33.884 Y45.868
G1 X33.884 Y47.107
G1 X31.818 Y46.694
G1 X29.339 Y48.347
G1 X29.339 Y46.694
G1 X28.926 Y44.215
G1 X27.273 Y44.215
G1 X27.686 Y43.388
G1 X28.099 Y42.149
G1 X28.099 Y41.322
G1 X27.686 Y40.083
G1 X27.273 Y39.256
G1 X28.099 Y40.083
G1 X30.165 Y37.603
G1 X28.926 Y37.190
G1 X29.752 Y38.843
G1 X29.339 Y40.083
G1 X30.579 Y39.669
G1 X31.405 Y39.256
G1 X30.992 Y35.950
G1 X30.992 Y28.926
G1 X32.231 Y29.752
G1 X41.322 Y30.992
G1 X42.149 Y29.752
G1 X42.562 Y34.711
G1 X41.736 Y33.471
G1 X48.760 Y29.752
G1 X47.521 Y29.752
G1 X47.934 Y31.405
G1 X47.521 Y33.058
G1 X43.802 Y35.537
G1 X44.628 Y33.058
G1 X45.868 Y33.471
G1 X46.281 Y34.298
G1 X47.107 Y34.711
G1 X46.694 Y33.884
G1 X55.785 Y33.884
G1 X55.372 Y32.645
G1 X56.198 Y32.231
G1 X53.306 Y29.339
G1 X58.678 Y30.579
G1 X59.091 Y28.099
G1 X60.744 Y30.992
G1 X63.223 Y28.926
G1 X63.636 Y28.099
G1 X63.223 Y29.339
G1 X64.463 Y29.752
G1 X63.223 Y30.579
G1 X62.397 Y30.579
G1 X64.050 Y32.231
G1 X63.636 Y31.405
G1 X63.223 Y32.231
G1 X61.983 Y31.818
G1 X60.744 Y30.579
G1 X59.917 Y31.818
G1 X59.091 Y32.231
G1 X57.851 Y33.471
G1 X58.678 Y33.884
G1 X57.438 Y35.537
G1 X58.264 Y35.950
G1 X58.678 Y39.256
G1 X57.438 Y39.669
G1 X54.959 Y40.909
G1 X55.372 Y40.083
G1 X57.438 Y47.107
G1 X55.372 Y47.107
G1 X55.785 Y45.868
G1 X56.198 Y45.041
G1 X57.851 Y44.628
G1 X57.025 Y44.215
G1 X57.025 Y43.388
G1 X57.025 Y42.562
G1 X58.264 Y41.322
G1 X58.678 Y40.083
G1 X59.917 Y45.041
G1 X59.091 Y43.388
G1 X59.091 Y42.562
G1 X59.504 Y41.736
G1 X60.744 Y36.364
G1 X59.917 Y35.950
G1 X57.438 Y30.579
G1 X53.306 Y33.058
G1 X54.545 Y33.058
G1 X53.719 Y34.298
G1 X55.372 Y34.711
G1 X55.785 Y35.537
G1 X56.612 Y38.430
G1 X55.785 Y37.603
G1 X57.851 Y37.603
G1 X58.264 Y38.430
G1 X63.636 Y32.645
G1 X64.050 Y31.818
G1 X67.355 Y35.537
G1 X68.595 Y38.843
G1 X66.529 Y36.364
G1 X66.529 Y37.190
G1 X66.942 Y38.430
G1 X67.355 Y39.256
G1 X70.248 Y40.909
G1 X69.008 Y40.909
G1 X68.182 Y42.562
G1 X67.769 Y41.736
G1 X65.702 Y40.496
G1 X66.116 Y39.669
G1 X64.876 Y39.256
G1 X61.983 Y44.628
G1 X61.983 Y43.388
G1 X62.810 Y42.562
G1 X61.570 Y42.149
G1 X61.570 Y41.322
G1 X60.331 Y41.736
G1 X61.157 Y44.628
G1 X61.157 Y45.455
G1 X64.876 Y50.413
G1 X64.050 Y51.653
G1 X63.636 Y50.826
G1 X71.074 Y49.174
G1 X71.074 Y46.694
G1 X71.901 Y46.281
G1 X73.967 Y49.587
G1 X74.380 Y48.760
G1 X73.554 Y49.587
G1 X72.727 Y48.760
G1 X79.752 Y54.959
G1 X80.992 Y55.785
G1 X79.752 Y57.025
G1 X78.926 Y56.612
G1 X78.512 Y57.851
G1 X77.273 Y57.025
G1 X76.859 Y59.091
G1 X77.686 Y58.678
G1 X77.273 Y60.331
G1 X78.099 Y60.331
G1 X78.512 Y61.570
G1 X79.752 Y58.264
G1 X83.058 Y54.545
G1 X83.058 Y56.198
G1 X81.818 Y56.198
G1 X82.645 Y57.025
G1 X82.231 Y59.917
G1 X81.405 Y60.744
G1 X79.339 Y60.331
G1 X80.579 Y58.678
G1 X69.835 Y62.397
G1 X71.074 Y59.917
G1 X73.967 Y59.091
G1 X74.380 Y57.438
G1 X73.140 Y57.025
G1 X75.207 Y53.719
G1 X73.967 Y53.719
G1 X73.967 Y55.372
G1 X73.140 Y56.198
G1 X72.727 Y55.372
G1 X71.901 Y55.372
G1 X70.248 Y56.612
G1 X71.074 Y59.504
G1 X68.595 Y59.917
G1 X69.835 Y59.091
G1 X69.008 Y58.264
G1 X69.421 Y60.331
G1 X70.248 Y59.091
G1 X71.901 Y58.264
G1 X71.488 Y56.612
G1 X70.248 Y57.025
G1 X69.421 Y57.438
G1 X72.727 Y52.479
G1 X70.248 Y52.893
G1 X67.769 Y54.545
G1 X69.008 Y54.132
G1 X70.248 Y53.306
G1 X71.901 Y53.306
G1 X72.727 Y54.959
G1 X74.380 Y52.893
G1 X72.727 Y53.306
G1 X73.140 Y52.066
G1 X82.645 Y55.785
G1 X81.818 Y58.264
G1 X80.579 Y57.851
G1 X81.818 Y58.264
G1 X81.405 Y59.504
G1 X82.645 Y58.678
G1 X80.579 Y57.025
G1 X82.231 Y57.851
G1 X78.512 Y57.025
G1 X80.579 Y57.851
G1 X79.339 Y57.438
G1 X78.099 Y59.091
G1 X78.926 Y61.983
G1 X79.752 Y59.504
G1 X70.661 Y59.917
G1 X66.529 Y58.678
G1 X64.050 Y61.983
G1 X64.050 Y61.157
G1 X66.116 Y63.636
G1 X66.942 Y62.397
G1 X65.702 Y62.810
G1 X63.223 Y61.570
G1 X64.463 Y62.810
G1 X63.223 Y66.529
G1 X59.917 Y66.942
G1 X59.504 Y66.116
G1 X60.331 Y67.355
G1 X61.157 Y67.769
G1 X62.810 Y67.769
G1 X63.636 Y68.595
G1 X62.810 Y69.421
G1 X61.157 Y71.074
G1 X59.504 Y68.595
G1 X57.025 Y70.661
G1 X57.851 Y70.248
G1 X55.785 Y69.008
G1 X52.066 Y68.595
G1 X50.413 Y69.008
G1 X49.174 Y69.008
G1 X47.521 Y68.595
G1 X45.868 Y68.595
G1 X38.843 Y64.876
G1 X43.388 Y65.289
G1 X40.083 Y59.917
G1 X40.083 Y60.744
G1 X42.975 Y62.397
G1 X43.802 Y62.397
G1 X42.562 Y56.198
G1 X41.322 Y57.851
G1 X42.149 Y58.264
G1 X42.975 Y57.025
G1 X43.802 Y57.438
G1 X44.215 Y54.959
G1 X42.975 Y54.132
G1 X44.215 Y57.851
G1 X43.388 Y57.438
G1 X42.562 Y58.264
G1 X40.496 Y57.851
G1 X39.669 Y57.025
G1 X40.909 Y55.785
G1 X40.083 Y55.785
G1 X41.322 Y56.198
G1 X40.909 Y57.025
G1 X39.669 Y56.198
G1 X38.430 Y56.612
G1 X38.430 Y54.545
G1 X35.950 Y55.372
G1 X35.537 Y52.893
G1 X33.058 Y52.893
G1 X26.860 Y52.479
G1 X27.686 Y52.893
G1 X29.752 Y53.719
G1 X30.579 Y55.785
G1 X31.405 Y55.785
G1 X32.231 Y56.198
G1 X38.430 Y58.264
G1 X39.256 Y57.851
G1 X38.430 Y58.678
G1 X40.909 Y59.504
G1 X35.950 Y61.983
G1 X34.711 Y61.570
G1 X34.298 Y59.917
G1 X32.645 Y60.331
G1 X30.165 Y58.264
G1 X33.058 Y59.091
G1 X24.793 Y54.545
G1 X26.033 Y52.066
G1 X24.793 Y53.306
G1 X25.207 Y51.653
G1 X35.537 Y49.174
G1 X28.926 Y49.174
G1 X30.579 Y50.000
G1 X32.231 Y49.587
G1 X37.190 Y49.587
G1 X38.430 Y50.413
G1 X43.802 Y51.653
G1 X43.388 Y54.132
G1 X44.215 Y52.479
G1 X45.041 Y57.438
G1 X54.132 Y54.132
G1 X52.479 Y51.653
G1 X54.959 Y51.653
G1 X55.785 Y51.240
G1 X59.917 Y50.413
G1 X62.397 Y51.653
G1 X72.314 Y49.587
G1 X72.727 Y47.934
G1 X71.074 Y41.322
G1 X68.182 Y37.190
G1 X71.074 Y45.041
G1 X71.488 Y47.934
G1 X65.702 Y49.174
G1 X64.463 Y49.174
G1 X63.223 Y49.174
G1 X61.157 Y49.174
G1 X59.504 Y49.587
G1 X66.942 Y50.413
G1 X68.182 Y52.066
G1 X66.942 Y52.479
G1 X63.636 Y52.066
G1 X63.223 Y50.413
G1 X65.702 Y51.240
G1 X58.264 Y58.264
G1 X64.050 Y59.917
G1 X65.702 Y59.917
G1 X67.355 Y57.851
G1 X66.942 Y59.091
G1 X64.463 Y59.504
G1 X59.917 Y58.264
G1 X61.157 Y55.785
G1 X60.331 Y56.612
G1 X57.025 Y57.025
G1 X56.198 Y56.612
G1 X54.959 Y56.198
G1 X53.719 Y56.612
G1 X52.479 Y56.612
G1 X51.653 Y56.198
G1 X50.000 Y57.851
G1 X57.025 Y61.570
G1 X59.091 Y61.570
G1 X59.917 Y61.157
G1 X60.331 Y62.397
G1 X63.223 Y61.983
G1 X64.463 Y62.397
G1 X61.983 Y62.397
G1 X61.157 Y61.983
G1 X60.331 Y61.983
G1 X56.198 Y61.983
G1 X54.132 Y58.264
G1 X53.719 Y59.091
G1 X54.959 Y57.851
G1 X55.785 Y57.851
G1 X57.438 Y58.264
G1 X57.025 Y57.438
G1 X57.851 Y57.438
G1 X58.264 Y55.372
G1 X57.025 Y56.612
G1 X58.264 Y56.612
G1 X56.198 Y55.372
G1 X68.595 Y58.264
G1 X67.769 Y57.851
G1 X60.744 Y72.314
G1 X64.876 Y65.702
G1 X68.182 Y65.702
G1 X69.421 Y66.942
G1 X69.421 Y69.008
G1 X71.074 Y69.835
G1 X72.314 Y68.182
G1 X73.554 Y69.421
G1 X70.248 Y68.595
G1 X70.661 Y69.421
G1 X71.901 Y69.835
G1 X69.421 Y72.314
G1 X70.661 Y71.901
G1 X69.835 Y72.727
G1 X69.421 Y73.967
G1 X68.182 Y74.380
G1 X64.876 Y73.554
G1 X66.942 Y78.099
G1 X62.810 Y73.554
G1 X65.702 Y70.248
G1 X62.810 Y68.595
G1 X64.463 Y72.314
G1 X66.116 Y70.248
G1 X65.702 Y71.488
G1 X66.529 Y71.901
G1 X68.182 Y70.248
G1 X67.355 Y67.769
G1 X66.116 Y66.529
G1 X64.876 Y69.008
G1 X63.636 Y71.074
G1 X62.810 Y69.835
G1 X61.570 Y72.314
G1 X62.810 Y84.298
G1 X65.289 Y87.190
G1 X59.091 Y93.388
G1 X55.372 Y90.496
G1 X60.744 Y88.430
G1 X62.397 Y84.298
G1 X61.157 Y75.207
G1 X59.917 Y76.860
G1 X61.983 Y84.298
G1 X65.702 Y90.496
G1 X65.702 Y94.215
G1 X64.876 Y91.736
G1 X64.050 Y90.909
G1 X62.810 Y93.802
G1 X61.157 Y95.868
G1 X62.810 Y95.455
G1 X64.050 Y92.975
G1 X60.744 Y89.669
G1 X63.223 Y87.603
G1 X63.223 Y78.926
G1 X62.810 Y77.273
G1 X63.636 Y76.033
G1 X62.810 Y75.620
G1 X62.397 Y73.967
G1 X61.157 Y74.380
G1 X59.917 Y72.314
G1 X61.570 Y64.876
G1 X59.091 Y62.397
G1 X61.157 Y62.810
G1 X64.876 Y62.810
G1 X61.570 Y68.182
G1 X61.983 Y65.702
G1 X56.612 Y60.744
G1 X54.545 Y61.157
G1 X53.306 Y59.917
G1 X51.653 Y57.025
G1 X50.826 Y57.025
G1 X42.975 Y59.917
G1 X46.281 Y58.264
G1 X45.041 Y54.545
G1 X47.107 Y57.025
G1 X49.587 Y56.612
G1 X51.653 Y55.372
G1 X52.066 Y53.306
G1 X50.413 Y52.479
G1 X50.413 Y54.959
G1 X48.347 Y55.785
G1 X47.107 Y56.198
G1 X52.479 Y59.917
G1 X52.893 Y61.570
G1 X50.826 Y59.091
G1 X48.347 Y58.264
G1 X45.455 Y59.917
G1 X42.975 Y60.331
G1 X41.322 Y59.504
G1 X42.149 Y59.091
G1 X43.388 Y58.678
G1 X40.909 Y58.678
G1 X45.041 Y55.785
G1 X39.669 Y52.479
G1 X43.388 Y52.066
G1 X42.562 Y53.719
G1 X43.388 Y57.851
G1 X42.562 Y57.025
G1 X41.736 Y54.132
G1 X40.909 Y54.132
G1 X38.843 Y54.545
G1 X39.256 Y55.785
G1 X41.322 Y54.959
G1 X40.909 Y56.198
G1 X41.736 Y55.785
G1 X39.669 Y59.917
G1 X38.843 Y59.917
G1 X38.430 Y61.157
G1 X36.364 Y62.397
G1 X34.298 Y62.397
G1 X37.603 Y60.744
G1 X28.926 Y67.355
G1 X24.793 Y66.942
G1 X19.421 Y62.397
G1 X22.314 Y71.901
G1 X17.769 Y72.314
G1 X18.182 Y74.793
G1 X18.182 Y76.860
G1 X18.182 Y77.686
G1 X18.595 Y64.050
G1 X18.595 Y62.810
G1 X23.140 Y69.421
G1 X23.140 Y71.901
G1 X21.901 Y69.835
G1 X21.901 Y68.182
G1 X19.835 Y69.008
G1 X19.835 Y71.901
G1 X21.901 Y73.140
G1 X24.793 Y72.727
G1 X23.140 Y78.099
G1 X31.818 Y89.669
G1 X33.884 Y89.669
G1 X43.388 Y92.975
G1 X46.694 Y92.975
G1 X45.041 Y97.521
G1 X47.521 Y97.521
G1 X48.347 Y96.281
G1 X49.174 Y95.868
G1 X48.347 Y97.107
G1 X51.653 Y97.521
G1 X51.240 Y96.694
G1 X50.413 Y93.802
G1 X52.893 Y94.628
G1 X43.388 Y94.628
G1 X44.628 Y93.802
G1 X42.975 Y93.388
G1 X39.669 Y92.149
G1 X37.603 Y92.975
G1 X42.975 Y96.694
G1 X43.802 Y97.934
G1 X43.802 Y96.694
G1 X40.909 Y97.934
G1 X42.149 Y97.107
G1 X40.496 Y97.521
G1 X41.322 Y97.107
G1 X33.884 Y91.322
G1 X40.083 Y93.388
G1 X42.975 Y94.215
G1 X41.322 Y94.215
G1 X38.843 Y97.521
G1 X37.603 Y97.107
G1 X36.364 Y97.107
G1 X35.537 Y96.281
G1 X37.603 Y95.041
G1 X33.884 Y95.041
G1 X33.058 Y95.455
G1 X32.645 Y94.628
G1 X35.537 Y94.628
G1 X36.777 Y93.802
G1 X35.537 Y93.802
G1 X30.992 Y92.975
G1 X28.926 Y94.215
G1 X28.926 Y90.083
G1 X33.884 Y92.149
G1 X29.339 Y94.628
G1 X37.190 Y92.149
G1 X46.281 Y89.669
G1 X45.868 Y91.322
G1 X48.347 Y91.736
G1 X52.893 Y90.909
G1 X54.959 Y90.909
G1 X54.132 Y96.694
G1 X55.785 Y98.347
G1 X56.198 Y99.587
G1 X57.438 Y99.587
G1 X57.851 Y98.760
G1 X57.025 Y97.521
G1 X54.959 Y94.215
G1 X57.025 Y96.281
G1 X57.438 Y97.107
G1 X59.504 Y98.760
G1 X60.331 Y100.000
G1 X61.157 Y98.347
G1 X61.983 Y98.347
G1 X64.463 Y97.107
G1 X64.050 Y97.934
G1 X65.289 Y97.107
G1 X64.050 Y95.868
G1 X62.810 Y96.281
G1 X61.983 Y95.868
G1 X62.397 Y94.628
G1 X61.570 Y93.802
G1 X59.917 Y94.215
G1 X62.397 Y92.149
G1 X65.289 Y89.256
G1 X66.942 Y89.669
G1 X67.769 Y91.322
G1 X69.008 Y90.496
G1 X69.835 Y89.669
G1 X71.074 Y87.603
G1 X71.074 Y82.645
G1 X69.835 Y84.298
G1 X70.661 Y85.124
G1 X70.661 Y83.471
G1 X70.248 Y82.645
G1 X73.140 Y83.884
G1 X71.488 Y82.231
G1 X72.727 Y82.231
G1 X73.554 Y83.471
G1 X73.140 Y84.711
G1 X65.289 Y88.430
G1 X66.529 Y88.430
G1 X66.942 Y92.562
G1 X66.529 Y91.736
G1 X66.529 Y90.496
G1 X67.355 Y89.669
G1 X68.182 Y90.083
G1 X67.355 Y90.909
G1 X68.595 Y94.628
G1 X67.769 Y95.041
G1 X66.942 Y94.215
G1 X66.529 Y93.388
G1 X67.355 Y93.388
G1 X66.529 Y94.215
G1 X64.876 Y96.281
G1 X65.289 Y90.909
G1 X63.223 Y88.843
G1 X63.636 Y88.017
G1 X61.157 Y89.669
G1 X61.983 Y90.083
G1 X64.876 Y92.562
G1 X64.463 Y93.802
G1 X63.636 Y94.628
G1 X62.810 Y95.041
G1 X52.893 Y91.736
G1 X53.719 Y91.322
G1 X56.198 Y91.736
G1 X59.504 Y90.496
G1 X58.678 Y91.736
G1 X57.438 Y91.736
G1 X58.264 Y91.322
G1 X61.157 Y82.231
G1 X61.157 Y85.537
G1 X59.917 Y88.430
G1 X57.438 Y87.603
G1 X46.694 Y90.909
G1 X47.521 Y91.322
G1 X52.066 Y90.496
G1 X55.785 Y90.083
G1 X56.612 Y90.496
G1 X59.917 Y89.256
G1 X66.529 Y86.364
G1 X64.463 Y84.711
G1 X64.463 Y83.058
G1 X65.702 Y80.165
G1 X66.116 Y83.884
G1 X64.876 Y84.711
G1 X64.876 Y83.058
G1 X64.050 Y78.926
G1 X64.463 Y78.099
G1 X64.050 Y76.860
G1 X66.529 Y75.207
G1 X67.355 Y76.860
G1 X68.595 Y79.339
G1 X68.595 Y77.273
G1 X69.421 Y76.446
G1 X69.008 Y75.207
G1 X72.727 Y73.967
G1 X75.620 Y78.099
G1 X74.793 Y78.512
G1 X75.620 Y77.686
G1 X74.793 Y76.033
G1 X73.967 Y77.273
G1 X72.727 Y78.512
G1 X75.207 Y80.165
G1 X71.488 Y80.579
G1 X70.661 Y82.231
G1 X69.008 Y82.231
G1 X68.595 Y84.711
G1 X67.355 Y80.579
G1 X64.876 Y78.926
G1 X65.289 Y80.579
G1 X64.463 Y79.752
G1 X68.182 Y77.686
G1 X68.182 Y76.033
G1 X67.769 Y75.207
G1 X73.554 Y76.033
G1 X72.727 Y75.620
G1 X75.207 Y74.380
G1 X75.620 Y76.860
G1 X75.620 Y69.835
G1 X76.033 Y67.355
G1 X76.446 Y66.529
G1 X79.339 Y74.380
G1 X77.686 Y76.033
G1 X78.926 Y76.860
G1 X78.099 Y77.273
G1 X78.512 Y78.512
G1 X78.512 Y80.165
G1 X74.380 Y80.579
G1 X71.488 Y79.339
G1 X69.835 Y77.686
G1 X72.314 Y77.273
G1 X71.074 Y76.033
G1 X70.248 Y76.446
G1 X71.074 Y75.620
G1 X73.140 Y71.488
G1 X73.967 Y71.074
G1 X74.380 Y71.901
G1 X74.793 Y70.248
G1 X69.835 Y71.488
G1 X70.248 Y70.248
G1 X68.182 Y69.421
G1 X69.008 Y69.008
G1 X68.595 Y67.355
G1 X69.008 Y68.182
G1 X66.942 Y69.421
G1 X67.355 Y70.661
G1 X66.116 Y71.074
G1 X64.050 Y69.835
G1 X62.397 Y72.314
G1 X63.223 Y72.727
G1 X64.463 Y74.380
G1 X64.050 Y75.207
G1 X66.116 Y74.793
G1 X68.595 Y73.967
G1 X68.182 Y73.140
G1 X67.769 Y72.314
G1 X69.008 Y70.248
G1 X69.008 Y71.074
G1 X65.289 Y63.636
G1 X69.008 Y65.702
G1 X69.008 Y59.917
G1 X68.182 Y59.504
G1 X68.182 Y63.223
G1 X67.355 Y61.983
G1 X67.769 Y61.157
G1 X71.074 Y64.463
G1 X71.488 Y66.116
G1 X73.140 Y65.289
G1 X72.314 Y66.529
G1 X71.074 Y66.529
G1 X70.248 Y67.355
G1 X71.488 Y68.595
G1 X71.488 Y67.769
G1 X73.140 Y66.942
G1 X73.554 Y66.116
G1 X73.967 Y65.289
G1 X73.554 Y61.157
G1 X73.554 Y59.917
G1 X73.554 Y58.678
G1 X73.554 Y54.545
G1 X77.273 Y56.612
G1 X79.752 Y57.851
G1 X81.405 Y57.438
G1 X81.818 Y55.785
G1 X82.645 Y56.612
G1 X81.405 Y60.331
G1 X80.165 Y59.504
G1 X81.405 Y59.091
G1 X81.818 Y59.917
G1 X82.645 Y57.438
G1 X80.165 Y55.785
G1 X82.645 Y53.306
G1 X82.231 Y54.959
G1 X80.579 Y53.719
G1 X81.818 Y52.893
G1 X78.512 Y52.066
G1 X78.512 Y53.306
G1 X79.752 Y52.066
G1 X80.579 Y51.653
G1 X82.231 Y51.240
G1 X82.231 Y49.587
G1 X79.339 Y50.000
G1 X81.405 Y47.107
G1 X80.992 Y45.868
G1 X77.686 Y43.388
G1 X77.686 Y42.562
G1 X78.926 Y43.802
G1 X78.099 Y47.521
G1 X78.926 Y47.934
G1 X73.554 Y40.909
G1 X72.314 Y41.322
G1 X71.074 Y39.669
G1 X71.901 Y38.017
G1 X70.248 Y35.537
G1 X69.835 Y36.364
G1 X70.661 Y35.537
G1 X69.835 Y32.645
G1 X70.661 Y31.818
G1 X69.835 Y29.752
G1 X70.661 Y28.512
G1 X70.661 Y26.446
G1 X70.661 Y25.620
G1 X73.140 Y23.967
G1 X73.140 Y24.793
G1 X70.248 Y26.446
G1 X69.421 Y26.860
G1 X69.008 Y25.207
G1 X68.182 Y24.793
G1 X62.810 Y28.926
G1 X61.983 Y30.579
G1 X62.810 Y30.165
G1 X62.397 Y27.686
G1 X59.504 Y26.860
G1 X48.760 Y21.488
G1 X41.322 Y21.488
G1 X38.843 Y28.099
G1 X40.496 Y27.686
G1 X42.562 Y28.512
G1 X46.281 Y33.471
G1 X46.694 Y30.992
G1 X42.975 Y33.884
G1 X42.975 Y33.058
G1 X43.802 Y32.231
G1 X46.281 Y30.579
G1 X45.868 Y31.405
G1 X47.107 Y33.058
G1 X45.041 Y32.645
G1 X49.174 Y31.405
G1 X47.521 Y34.298
G1 X50.826 Y36.364
G1 X51.240 Y35.537
G1 X52.066 Y35.950
G1 X52.893 Y38.843
G1 X51.240 Y48.760
G1 X51.240 Y50.413
G1 X54.545 Y51.240
G1 X55.372 Y51.653
G1 X55.785 Y52.893
G1 X67.769 Y53.719
G1 X70.661 Y56.198
G1 X71.488 Y55.372
G1 X72.727 Y56.612
G1 X72.727 Y59.091
G1 X72.727 Y60.744
G1 X69.421 Y63.223
G1 X69.835 Y64.050
G1 X69.008 Y67.355
G1 X67.355 Y68.595
G1 X66.529 Y67.355
G1 X66.116 Y68.595
G1 X65.289 Y67.355
G1 X64.050 Y66.529
G1 X63.223 Y67.769
G1 X62.810 Y66.942
G1 X61.157 Y69.835
G1 X58.678 Y69.008
G1 X60.331 Y71.901
G1 X60.744 Y71.074
G1 X61.570 Y69.835
G1 X58.678 Y68.182
G1 X60.744 Y64.876
G1 X60.744 Y67.355
G1 X59.091 Y63.636
G1 X57.438 Y62.397
G1 X53.306 Y61.983
G1 X53.719 Y60.744
G1 X54.545 Y59.917
G1 X53.306 Y60.331
G1 X53.306 Y55.372
G1 X54.959 Y56.612
G1 X54.959 Y57.438
G1 X52.066 Y58.264
G1 X51.240 Y57.851
G1 X50.413 Y57.851
G1 X50.000 Y59.504
G1 X45.868 Y59.917
G1 X44.215 Y60.744
G1 X40.909 Y60.331
G1 X39.256 Y61.157
G1 X29.752 Y69.421
G1 X28.926 Y71.488
G1 X33.058 Y69.008
G1 X30.579 Y76.033
G1 X30.165 Y82.231
G1 X27.273 Y76.446
G1 X29.339 Y73.554
G1 X27.273 Y73.554
G1 X27.686 Y74.793
G1 X29.752 Y75.620
G1 X25.620 Y80.579
G1 X30.165 Y83.471
G1 X31.818 Y88.017
G1 X39.669 Y90.496
G1 X34.298 Y90.909
G1 X32.645 Y90.083
G1 X26.033 Y88.430
G1 X25.620 Y81.818
G1 X28.512 Y80.165
G1 X26.033 Y80.579
G1 X27.686 Y78.512
G1 X26.860 Y80.165
G1 X30.165 Y78.926
G1 X26.446 Y84.298
G1 X24.380 Y87.190
G1 X23.967 Y88.430
G1 X22.727 Y86.364
G1 X22.727 Y82.645
G1 X25.207 Y81.818
G1 X24.793 Y85.950
G1 X25.620 Y87.190
G1 X24.380 Y88.017
G1 X24.380 Y76.446
G1 X26.033 Y73.967
G1 X26.446 Y76.860
G1 X26.033 Y77.686
G1 X27.273 Y78.099
G1 X29.752 Y86.364
G1 X32.645 Y83.058
G1 X32.645 Y83.884
G1 X32.645 Y88.017
G1 X37.603 Y88.017
G1 X40.496 Y89.669
G1 X40.083 Y90.496
G1 X42.562 Y92.149
G1 X44.215 Y92.562
G1 X44.628 Y91.736
G1 X43.388 Y90.909
G1 X41.736 Y91.322
G1 X43.388 Y91.736
G1 X42.562 Y90.909
G1 X41.736 Y89.256
G1 X39.256 Y91.322
G1 X35.950 Y91.322
G1 X38.017 Y94.215
G1 X46.694 Y95.868
G1 X47.521 Y96.694
G1 X44.628 Y96.694
G1 X44.628 Y97.521
G1 X44.215 Y98.347
G1 X43.388 Y97.934
G1 X42.975 Y99.174
G1 X45.455 Y99.174
G1 X47.521 Y97.934
G1 X46.281 Y97.521
G1 X47.521 Y95.455
G1 X45.041 Y94.215
G1 X48.760 Y95.041
G1 X48.347 Y94.215
G1 X46.694 Y93.802
G0 Z1

G0 X46.694 Y94.215
G1 Z0

G1 X48.760 Y96.281
G1 X50.000 Y96.281
G1 X50.826 Y95.868
G1 X44.628 Y90.909
G1 X45.455 Y90.496
G1 X43.802 Y91.736
G1 X44.628 Y92.562
G1 X46.694 Y91.736
G1 X47.521 Y92.975
G1 X48.347 Y90.909
G1 X47.521 Y90.909
G1 X54.132 Y92.562
G1 X52.479 Y92.562
G1 X53.719 Y93.388
G1 X51.240 Y92.975
G1 X54.545 Y95.455
G1 X57.438 Y100.000
G1 X59.917 Y99.174
G1 X69.421 Y91.736
G1 X69.421 Y90.496
G1 X68.182 Y88.843
G1 X67.355 Y88.843
G1 X66.529 Y87.603
G1 X65.702 Y87.190
G1 X64.876 Y88.017
G1 X66.116 Y87.603
G1 X66.942 Y87.190
G1 X64.463 Y85.537
G1 X64.050 Y86.777
G1 X63.636 Y85.950
G1 X65.289 Y84.711
G1 X64.876 Y85.537
G1 X65.702 Y84.711
G1 X66.116 Y85.537
G1 X68.182 Y81.818
G1 X69.008 Y83.884
G1 X72.314 Y84.711
G1 X76.859 Y77.273
G1 X76.859 Y79.752
G1 X78.099 Y82.231
G1 X75.207 Y81.405
G1 X73.554 Y81.405
G1 X71.074 Y76.860
G1 X69.421 Y77.273
G1 X67.769 Y78.926
G1 X69.008 Y78.512
G1 X68.595 Y80.165
G1 X69.421 Y80.579
G1 X70.248 Y80.579
G1 X72.314 Y79.752
G1 X72.314 Y73.967
G1 X62.810 Y78.512
G1 X62.810 Y82.231
G1 X61.983 Y83.058
G1 X62.397 Y83.884
G1 X59.504 Y78.926
G1 X59.091 Y76.446
G1 X59.504 Y75.620
G1 X58.264 Y74.380
G1 X58.678 Y75.207
G1 X57.851 Y74.380
G1 X56.198 Y76.860
G1 X52.893 Y81.405
G1 X57.851 Y79.752
G1 X54.132 Y83.471
G1 X50.826 Y84.298
G1 X52.893 Y85.537
G1 X55.785 Y82.231
G1 X59.091 Y79.752
G1 X59.504 Y83.884
G1 X57.025 Y85.537
G1 X57.438 Y87.190
G1 X58.264 Y87.190
G1 X58.264 Y85.950
G1 X57.025 Y85.124
G1 X56.612 Y83.884
G1 X54.959 Y86.364
G1 X52.893 Y84.298
G1 X51.653 Y85.124
G1 X44.628 Y84.298
G1 X39.256 Y81.405
G1 X38.430 Y74.380
G1 X35.950 Y75.207
G1 X32.231 Y77.686
G1 X32.231 Y80.579
G1 X32.645 Y79.752
G1 X33.058 Y75.207
G1 X34.298 Y75.620
G1 X34.711 Y71.074
G1 X32.645 Y72.314
G1 X33.471 Y73.140
G1 X33.058 Y72.314
G1 X31.818 Y71.488
G1 X31.405 Y72.314
G1 X31.818 Y74.380
G1 X31.818 Y76.860
G1 X29.752 Y76.033
G1 X30.165 Y76.860
G1 X29.339 Y75.620
G1 X29.752 Y74.380
G1 X23.554 Y72.727
G1 X23.554 Y77.686
G1 X22.727 Y76.446
G1 X22.727 Y75.620
G1 X22.727 Y73.967
G1 X21.488 Y73.554
G1 X21.901 Y72.727
G1 X21.488 Y71.074
G1 X20.248 Y71.074
G1 X20.661 Y69.421
G1 X21.074 Y68.595
G1 X21.901 Y71.074
G1 X22.727 Y69.835
G1 X22.314 Y68.595
G1 X23.554 Y67.355
G1 X22.314 Y66.529
G1 X22.727 Y65.702
G1 X24.380 Y65.702
G1 X25.207 Y65.289
G1 X24.793 Y66.529
G1 X26.033 Y65.702
G1 X26.860 Y64.876
G1 X28.099 Y65.702
G1 X28.926 Y65.289
G1 X29.339 Y66.116
G1 X30.165 Y66.116
G1 X30.992 Y66.942
G1 X30.992 Y68.595
G1 X31.818 Y68.595
G1 X33.058 Y64.463
G1 X30.579 Y62.810
G1 X30.165 Y61.983
G1 X28.512 Y62.397
G1 X28.099 Y63.223
G1 X26.860 Y61.983
G1 X27.273 Y61.157
G1 X23.554 Y62.397
G1 X22.314 Y59.917
G1 X22.314 Y57.025
G1 X22.314 Y55.785
G1 X23.140 Y55.372
G1 X22.727 Y56.612
G1 X23.140 Y44.215
G1 X21.901 Y45.455
G1 X21.901 Y47.521
G1 X22.727 Y49.174
G1 X22.727 Y50.413
G1 X23.140 Y51.240
G1 X35.537 Y47.521
G1 X29.752 Y50.000
G1 X27.686 Y41.736
G1 X29.339 Y39.256
G1 X28.099 Y38.843
G1 X28.099 Y39.669
G1 X29.752 Y40.909
G1 X26.446 Y50.000
G1 X25.620 Y47.521
G1 X26.033 Y45.868
G1 X25.620 Y46.694
G1 X26.446 Y49.174
G1 X27.686 Y45.041
G1 X26.860 Y45.455
G1 X27.273 Y42.562
G1 X25.207 Y42.562
G1 X26.033 Y45.041
G1 X26.860 Y43.388
G1 X26.033 Y42.975
G1 X18.595 Y49.587
G1 X18.595 Y47.521
G1 X20.661 Y45.455
G1 X20.661 Y47.521
G1 X19.835 Y46.694
G1 X18.182 Y45.041
G1 X17.769 Y46.281
G1 X18.595 Y47.107
G1 X19.421 Y47.934
G1 X19.008 Y50.000
G1 X18.182 Y50.000
G1 X18.182 Y48.760
G1 X17.355 Y47.521
G1 X16.529 Y45.868
G1 X19.008 Y42.149
G1 X19.421 Y42.975
G1 X18.182 Y44.628
G1 X20.248 Y45.455
G1 X19.835 Y47.107
G1 X19.008 Y47.934
G1 X19.008 Y48.760
G1 X19.421 Y49.587
G1 X20.248 Y49.587
G1 X21.488 Y50.826
G1 X22.314 Y49.587
G1 X22.314 Y48.760
G1 X20.661 Y50.413
G1 X16.529 Y50.826
G1 X17.355 Y51.653
G1 X18.182 Y51.240
G1 X16.942 Y49.174
G1 X16.529 Y50.413
G1 X17.355 Y48.760
G1 X17.769 Y47.107
G1 X21.901 Y43.388
G1 X21.488 Y45.041
G1 X21.488 Y46.281
G1 X21.488 Y47.934
G1 X20.661 Y48.347
G1 X19.835 Y49.174
G1 X23.140 Y34.711
G1 X24.380 Y33.058
G1 X24.380 Y27.686
G1 X23.554 Y26.446
G1 X23.554 Y27.273
G1 X23.967 Y28.926
G1 X22.314 Y29.339
G1 X21.901 Y30.992
G1 X22.727 Y30.165
G1 X21.901 Y29.752
G1 X22.314 Y28.926
G1 X23.554 Y28.099
G1 X22.314 Y30.165
G1 X23.140 Y30.579
G1 X23.554 Y32.231
G1 X22.727 Y32.231
G1 X21.901 Y33.884
G1 X22.314 Y36.364
G1 X21.901 Y35.124
G1 X20.661 Y35.950
G1 X20.661 Y35.124
G1 X20.661 Y33.884
G1 X21.901 Y33.058
G1 X21.488 Y30.165
G1 X21.901 Y28.926
G1 X22.727 Y26.033
G1 X22.727 Y27.686
G1 X28.926 Y22.314
G1 X29.752 Y21.488
G1 X30.165 Y22.727
G1 X30.165 Y24.793
G1 X28.926 Y24.380
G1 X28.926 Y23.554
G1 X27.686 Y22.314
G1 X26.446 Y21.488
G1 X26.860 Y20.661
G1 X27.686 Y20.248
G1 X26.446 Y18.595
G1 X26.033 Y17.355
G1 X26.860 Y16.529
G1 X26.860 Y17.355
G1 X27.273 Y10.331
G1 X26.860 Y9.091
G1 X27.686 Y8.264
G1 X29.339 Y9.504
G1 X30.992 Y15.289
G1 X32.645 Y14.876
G1 X32.645 Y14.050
G1 X33.058 Y13.223
G1 X35.124 Y14.876
G1 X33.471 Y15.289
G1 X34.711 Y16.116
G1 X28.512 Y15.702
G1 X28.512 Y17.355
G1 X27.273 Y19.008
G1 X26.860 Y19.835
G1 X33.884 Y23.967
G1 X32.645 Y23.554
G1 X30.165 Y26.033
G1 X28.926 Y26.446
G1 X28.099 Y26.860
G1 X27.273 Y26.446
G1 X28.926 Y28.099
G1 X29.339 Y27.273
G1 X28.512 Y27.273
G1 X32.645 Y30.992
G1 X30.579 Y30.992
G1 X37.190 Y28.099
G1 X37.190 Y24.380
G1 X38.843 Y23.140
G1 X39.256 Y25.207
G1 X38.430 Y26.860
G1 X41.736 Y26.860
G1 X46.694 Y26.860
G1 X48.347 Y26.860
G1 X47.521 Y27.273
G1 X52.479 Y27.273
G1 X53.306 Y26.860
G1 X54.132 Y26.446
G1 X52.893 Y28.926
G1 X50.000 Y28.926
G1 X46.281 Y28.926
G1 X40.083 Y34.711
G1 X37.603 Y33.471
G1 X38.843 Y29.339
G1 X38.843 Y31.405
G1 X39.256 Y30.579
G1 X41.322 Y33.058
G1 X40.083 Y33.058
G1 X33.058 Y30.579
G1 X33.058 Y31.818
G1 X33.884 Y30.579
G1 X34.298 Y32.231
G1 X30.165 Y33.471
G1 X28.099 Y32.645
G1 X29.339 Y33.884
G1 X28.099 Y35.124
G1 X29.339 Y35.950
G1 X28.512 Y36.777
G1 X26.446 Y32.231
G1 X26.033 Y36.364
G1 X23.554 Y37.603
G1 X23.554 Y33.471
G1 X26.033 Y30.165
G1 X25.620 Y28.926
G1 X24.380 Y23.554
G1 X25.207 Y24.380
G1 X25.207 Y23.554
G1 X25.207 Y22.727
G1 X24.793 Y21.901
G1 X28.099 Y26.033
G1 X28.099 Y23.554
G1 X25.620 Y26.033
G1 X26.033 Y26.860
G1 X25.620 Y27.686
G1 X27.686 Y29.752
G1 X27.273 Y27.273
G1 X28.512 Y28.512
G1 X36.777 Y25.620
G1 X35.537 Y28.512
G1 X36.364 Y28.926
G1 X40.083 Y22.727
G1 X41.736 Y23.140
G1 X39.669 Y26.446
G1 X39.256 Y25.620
G1 X39.669 Y24.793
G1 X40.083 Y23.140
G1 X43.802 Y21.901
G1 X47.521 Y14.876
G1 X51.240 Y15.702
G1 X53.306 Y16.116
G1 X54.545 Y15.289
G1 X51.653 Y15.289
G1 X47.934 Y16.116
G1 X52.066 Y17.769
G1 X51.240 Y16.942
G1 X50.000 Y16.116
G1 X50.826 Y16.116
G1 X62.810 Y9.091
G1 X69.008 Y6.198
G1 X69.835 Y4.132
G1 X68.182 Y2.479
G1 X66.116 Y5.785
G1 X64.876 Y5.785
G1 X68.182 Y8.264
G1 X69.421 Y11.570
G1 X68.182 Y10.744
G1 X65.289 Y14.050
G1 X65.289 Y11.983
G1 X66.116 Y12.810
G1 X66.529 Y9.091
G1 X67.355 Y9.091
G1 X70.248 Y11.157
G1 X69.835 Y9.917
G1 X69.421 Y9.091
G1 X70.661 Y8.678
G1 X70.248 Y7.438
G1 X71.488 Y8.264
G1 X73.140 Y7.025
G1 X73.554 Y2.893
G1 X73.140 Y.826
G1 X73.554 Y1.653
G1 X73.140 Y2.479
G1 X74.380 Y11.570
G1 X73.967 Y12.397
G1 X73.140 Y13.223
G1 X73.140 Y9.917
G1 X71.901 Y11.570
G1 X71.074 Y11.157
G1 X71.488 Y9.917
G1 X70.248 Y9.091
G1 X68.182 Y7.025
G1 X66.529 Y5.785
G1 X67.769 Y3.719
G1 X67.769 Y4.545
G1 X64.876 Y3.719
G1 X63.636 Y4.545
G1 X64.463 Y4.545
G1 X64.050 Y5.372
G1 X63.223 Y5.785
G1 X64.050 Y6.198
G1 X61.983 Y1.240
G1 X64.050 Y1.240
G1 X65.702 Y2.066
G1 X69.008 Y2.066
G1 X69.421 Y1.240
G1 X68.595 Y.826
G1 X67.355 Y.826
G1 X66.116 Y.826
G1 X65.289 Y1.240
G1 X66.942 Y1.653
G1 X67.355 Y2.479
G1 X66.942 Y3.719
G1 X65.702 Y3.306
G1 X64.876 Y2.893
G1 X65.702 Y3.719
G1 X66.529 Y3.306
G1 X64.876 Y6.612
G1 X63.636 Y7.025
G1 X63.223 Y7.851
G1 X61.157 Y4.132
G1 X62.397 Y3.306
G1 X62.810 Y2.479
G1 X63.636 Y3.719
G1 X64.050 Y4.545
G1 X60.744 Y1.240
G1 X61.570 Y1.240
G1 X60.331 Y1.653
G1 X59.504 Y2.066
G1 X59.091 Y1.240
G1 X53.306 Y2.066
G1 X54.132 Y2.479
G1 X55.372 Y2.479
G1 X53.719 Y9.917
G1 X52.066 Y9.091
G1 X46.694 Y10.744
G1 X42.975 Y9.917
G1 X42.975 Y11.157
G1 X47.521 Y11.157
G1 X47.107 Y10.331
G1 X52.893 Y7.025
G1 X48.760 Y7.851
G1 X49.587 Y7.438
G1 X47.934 Y7.025
G1 X46.281 Y7.025
G1 X44.215 Y7.438
G1 X45.868 Y6.198
G1 X46.694 Y6.198
G1 X45.455 Y7.438
G1 X47.107 Y7.438
G1 X47.934 Y7.851
G1 X45.868 Y8.264
G1 X42.975 Y7.851
G1 X42.975 Y8.678
G1 X40.909 Y8.678
G1 X37.190 Y8.678
G1 X39.256 Y4.545
G1 X37.603 Y3.719
G1 X38.017 Y4.545
G1 X37.190 Y4.959
G1 X37.190 Y5.785
G1 X38.017 Y6.198
G1 X40.083 Y7.025
G1 X41.736 Y7.025
G1 X42.975 Y5.372
G1 X41.736 Y5.785
G1 X40.083 Y4.545
G1 X39.256 Y4.132
G1 X37.603 Y5.372
G1 X35.124 Y2.479
G1 X35.950 Y2.066
G1 X36.777 Y2.893
G1 X37.190 Y2.066
G1 X38.430 Y1.240
G1 X45.455 Y1.240
G1 X47.934 Y3.719
G1 X49.174 Y2.893
G1 X50.826 Y2.479
G1 X50.413 Y3.306
G1 X48.760 Y4.132
G1 X46.694 Y6.612
G1 X50.000 Y5.785
G1 X52.893 Y6.198
G1 X51.653 Y1.653
G1 X52.893 Y2.893
G1 X52.893 Y4.132
G1 X53.719 Y5.372
G1 X55.785 Y6.612
G1 X54.959 Y6.612
G1 X64.876 Y11.157
G1 X64.876 Y14.050
G1 X65.702 Y15.702
G1 X65.289 Y16.529
G1 X64.463 Y18.595
G1 X70.248 Y11.983
G1 X71.074 Y12.397
G1 X72.314 Y7.851
G1 X71.488 Y9.091
G1 X70.248 Y6.198
G1 X69.421 Y6.612
G1 X69.835 Y5.785
G1 X71.488 Y1.653
G1 X70.248 Y2.066
G1 X65.289 Y9.091
G1 X65.289 Y8.264
G1 X65.702 Y11.157
G1 X66.942 Y10.331
G1 X66.942 Y13.636
G1 X66.529 Y14.463
G1 X67.355 Y14.876
G1 X67.769 Y15.702
G1 X68.182 Y16.529
G1 X70.248 Y15.289
G1 X69.421 Y14.876
G1 X72.314 Y11.570
G1 X71.901 Y12.397
G1 X72.727 Y12.810
G1 X73.967 Y15.702
G1 X73.554 Y16.529
G1 X69.835 Y15.289
G1 X71.488 Y17.355
G1 X73.140 Y17.769
G1 X72.727 Y18.595
G1 X73.554 Y18.182
G1 X73.967 Y19.835
G1 X74.380 Y20.661
G1 X74.793 Y21.488
G1 X74.793 Y12.397
G1 X73.967 Y11.570
G1 X73.554 Y9.504
G1 X72.727 Y9.504
G1 X72.314 Y10.331
G1 X74.380 Y13.636
G1 X71.074 Y14.876
G1 X73.554 Y15.702
G1 X72.314 Y16.942
G1 X72.314 Y20.248
G1 X71.488 Y18.595
G1 X69.421 Y21.488
G1 X71.901 Y23.967
G1 X72.314 Y24.793
G1 X71.488 Y23.967
G1 X71.901 Y22.314
G1 X71.074 Y22.727
G1 X70.248 Y21.488
G1 X71.074 Y20.661
G1 X65.289 Y30.992
G1 X65.289 Y29.752
G1 X66.116 Y28.926
G1 X67.355 Y34.298
G1 X67.769 Y35.124
G1 X67.769 Y35.950
G1 X71.488 Y38.430
G1 X70.248 Y38.430
G1 X69.421 Y39.669
G1 X68.595 Y40.909
G1 X67.355 Y38.430
G1 X67.355 Y37.603
G1 X67.769 Y38.843
G1 X67.355 Y39.669
G1 X66.116 Y40.909
G1 X64.050 Y45.868
G1 X62.810 Y46.694
G1 X59.091 Y47.934
G1 X54.959 Y48.347
G1 X51.653 Y47.521
G1 X52.479 Y49.587
G1 X52.479 Y50.413
G1 X51.653 Y50.000
G1 X51.653 Y48.347
G1 X52.479 Y47.934
G1 X52.066 Y45.868
G1 X52.479 Y43.802
G1 X52.893 Y42.149
G1 X50.413 Y45.868
G1 X51.653 Y40.496
G1 X52.066 Y38.430
G1 X56.198 Y35.950
G1 X60.331 Y38.843
G1 X57.438 Y38.843
G1 X57.851 Y40.083
G1 X59.504 Y40.496
G1 X59.917 Y39.256
G1 X63.223 Y38.017
G1 X60.331 Y40.909
G1 X58.264 Y42.149
G1 X57.438 Y43.802
G1 X56.198 Y44.215
G1 X54.959 Y47.107
G1 X54.132 Y45.455
G1 X55.372 Y44.628
G1 X53.719 Y43.802
G1 X52.479 Y45.868
G1 X52.479 Y45.041
G1 X52.893 Y46.281
G1 X53.719 Y46.694
G1 X54.545 Y45.868
G1 X56.612 Y40.909
G1 X56.198 Y39.256
G1 X61.983 Y34.711
G1 X61.983 Y36.777
G1 X59.917 Y35.537
G1 X58.264 Y36.777
G1 X57.025 Y35.950
G1 X58.678 Y35.537
G1 X57.025 Y33.884
G1 X56.612 Y31.818
G1 X57.851 Y27.273
G1 X53.719 Y24.793
G1 X55.785 Y25.207
G1 X57.851 Y26.860
G1 X59.917 Y28.099
G1 X61.157 Y23.554
G1 X60.744 Y22.727
G1 X59.091 Y21.074
G1 X60.744 Y21.074
G1 X60.331 Y21.901
G1 X61.157 Y23.140
G1 X67.355 Y24.380
G1 X68.182 Y21.074
G1 X69.421 Y21.901
G1 X69.008 Y22.727
G1 X68.595 Y21.901
G1 X68.182 Y23.140
G1 X71.488 Y27.273
G1 X71.901 Y28.926
G1 X71.488 Y28.099
G1 X70.248 Y28.512
G1 X69.008 Y27.273
G1 X69.008 Y26.446
G1 X67.769 Y26.033
G1 X68.595 Y26.860
G1 X69.421 Y29.339
G1 X68.595 Y30.165
G1 X69.008 Y30.992
G1 X67.355 Y28.512
G1 X67.355 Y27.686
G1 X65.702 Y26.446
G1 X65.702 Y24.793
G1 X63.636 Y24.793
G1 X63.223 Y26.860
G1 X57.438 Y22.727
G1 X60.744 Y17.769
G1 X60.744 Y19.421
G1 X59.917 Y19.835
G1 X63.223 Y17.355
G1 X62.810 Y16.529
G1 X64.463 Y15.289
G1 X63.223 Y14.463
G0 Z1

G0 X63.636 Y14.876
G1 Z0

G1 X64.050 Y21.074
G1 X64.876 Y21.488
G1 X64.463 Y19.421
G1 X64.876 Y20.248
G1 X68.182 Y18.182
G1 X68.182 Y17.355
G1 X68.595 Y15.289
G1 X71.074 Y13.636
G1 X70.248 Y13.223
G1 X71.074 Y15.289
G1 X72.314 Y15.702
G1 X71.901 Y17.769
G1 X71.901 Y20.248
G1 X73.140 Y19.421
G1 X74.380 Y27.686
G1 X74.793 Y28.926
G1 X67.769 Y20.248
G1 X66.942 Y19.421
G1 X66.529 Y20.248
G1 X67.355 Y19.421
G1 X66.942 Y18.182
G1 X66.942 Y17.355
G1 X67.355 Y18.182
G1 X61.570 Y26.860
G1 X57.025 Y21.901
G1 X59.917 Y23.140
G1 X57.851 Y20.248
G1 X50.413 Y17.769
G1 X53.719 Y17.355
G1 X54.132 Y18.182
G1 X55.372 Y17.355
G1 X59.917 Y22.314
G1 X57.851 Y21.901
G1 X57.438 Y20.661
G1 X52.893 Y21.488
G1 X55.372 Y20.248
G1 X55.372 Y21.901
G1 X56.612 Y23.554
G1 X56.612 Y22.727
G1 X58.678 Y24.380
G1 X59.091 Y23.140
G1 X61.983 Y25.207
G1 X62.810 Y27.686
G1 X70.661 Y39.669
G1 X75.620 Y46.694
G1 X75.620 Y50.413
G1 X72.727 Y50.826
G1 X73.967 Y40.083
G1 X71.488 Y41.322
G1 X73.140 Y44.215
G1 X72.314 Y47.934
G1 X67.355 Y49.587
G1 X69.008 Y51.653
G1 X71.901 Y50.413
G1 X66.116 Y51.240
G1 X68.595 Y52.893
G1 X56.612 Y52.893
G1 X54.132 Y61.570
G1 X50.000 Y56.612
G1 X50.826 Y54.959
G1 X50.826 Y53.306
G1 X53.306 Y45.868
G1 X50.000 Y31.405
G1 X52.066 Y33.884
G1 X40.496 Y35.537
G1 X41.322 Y35.950
G1 X43.388 Y35.537
G1 X45.455 Y33.884
G1 X44.215 Y34.298
G1 X43.388 Y34.711
G1 X42.149 Y34.711
G1 X47.521 Y32.231
G1 X47.107 Y33.471
G1 X45.868 Y33.884
G1 X47.107 Y32.645
G1 X48.347 Y33.884
G1 X49.174 Y33.884
G1 X50.000 Y32.645
G1 X48.347 Y32.231
G1 X49.587 Y31.405
G1 X49.587 Y32.231
G1 X49.174 Y33.058
G1 X38.843 Y36.364
G1 X43.388 Y35.950
G1 X44.215 Y35.537
G1 X53.306 Y34.298
G1 X51.240 Y31.818
G1 X50.826 Y33.058
G1 X56.198 Y30.165
G1 X56.198 Y28.926
G1 X54.545 Y28.926
G1 X57.025 Y27.273
G1 X54.959 Y26.860
G1 X59.504 Y24.380
G1 X63.636 Y21.488
G1 X62.810 Y23.140
G1 X64.050 Y22.314
G1 X62.397 Y20.248
G1 X62.397 Y15.289
G1 X56.198 Y11.157
G1 X59.504 Y9.091
G1 X58.678 Y8.678
G1 X54.132 Y7.438
G0 Z1

G0 X53.306 Y7.851
G1 Z0

G1 X55.785 Y4.959
G1 X57.438 Y6.612
G1 X56.612 Y6.612
G1 X55.372 Y5.785
G1 X54.959 Y4.959
G1 X53.719 Y4.132
G1 X56.612 Y11.983
G1 X54.959 Y11.983
G1 X52.893 Y11.570
G1 X52.066 Y12.810
G1 X47.521 Y15.702
G1 X46.281 Y14.876
G1 X38.843 Y18.595
G1 X38.017 Y18.182
G1 X40.083 Y16.942
G1 X40.909 Y16.942
G1 X34.298 Y13.636
G1 X34.711 Y14.463
G1 X33.471 Y16.116
G1 X33.471 Y14.463
G1 X30.579 Y11.157
G1 X30.579 Y12.810
G1 X31.405 Y12.397
G1 X32.231 Y14.050
G1 X30.579 Y14.876
G1 X31.818 Y13.636
G1 X28.099 Y3.719
G1 X27.273 Y5.372
G1 X20.661 Y3.306
G1 X20.661 Y2.479
G1 X21.488 Y3.306
G1 X19.008 Y10.331
G1 X16.116 Y7.851
G1 X19.008 Y8.678
G1 X17.769 Y7.438
G1 X13.636 Y4.132
G1 X6.612 Y2.066
G1 X7.851 Y2.893
G1 X4.545 Y2.893
G1 X5.372 Y3.719
G1 X4.545 Y3.306
G1 X2.893 Y.826
G1 X1.653 Y.826
G1 X5.372 Y2.479
G1 X5.372 Y.826
G1 X6.612 Y2.479
G1 X19.421 Y4.132
G1 X14.876 Y1.653
G1 X15.702 Y1.653
G1 X14.463 Y.826
G1 X15.289 Y.826
G1 X16.529 Y.826
G1 X18.595 Y1.240
G1 X19.008 Y2.479
G1 X18.182 Y1.653
G1 X19.008 Y1.653
G1 X21.488 Y6.198
G1 X23.554 Y6.612
G1 X22.727 Y7.025
G1 X23.554 Y9.917
G1 X18.595 Y6.198
G1 X16.942 Y5.372
G1 X16.529 Y4.545
G1 X17.769 Y5.372
G1 X12.810 Y7.025
G1 X14.463 Y5.785
G1 X13.223 Y5.785
G1 X13.636 Y7.025
G1 X16.116 Y7.025
G1 X15.702 Y7.851
G1 X22.727 Y18.182
G1 X24.380 Y17.355
G1 X23.140 Y18.182
G1 X24.380 Y18.182
G1 X21.074 Y11.983
G1 X21.488 Y13.223
G1 X21.488 Y15.702
G1 X21.901 Y14.876
G1 X24.380 Y14.050
G1 X22.727 Y14.050
G1 X22.727 Y13.223
G1 X23.554 Y13.636
G1 X24.380 Y16.529
G1 X23.554 Y16.116
G1 X26.860 Y19.008
G1 X26.033 Y18.595
G1 X26.860 Y17.769
G1 X28.099 Y17.355
G1 X25.207 Y15.289
G1 X25.620 Y14.463
G1 X26.446 Y15.289
G1 X27.686 Y14.463
G1 X27.686 Y15.702
G1 X30.579 Y18.182
G1 X32.645 Y12.810
G1 X30.992 Y13.223
G1 X31.818 Y11.983
G1 X36.777 Y11.570
G1 X36.777 Y10.331
G0 Z1

G0 X36.364 Y10.331
G1 Z0

G1 X36.364 Y9.091
G1 X36.777 Y7.851
G1 X35.950 Y7.438
G1 X35.950 Y8.264
G1 X35.124 Y8.678
G1 X33.884 Y7.438
G1 X31.818 Y8.678
G1 X32.231 Y10.331
G1 X30.992 Y10.331
G1 X30.579 Y9.504
G1 X31.818 Y9.917
G1 X37.190 Y8.264
G1 X36.777 Y9.091
G1 X41.736 Y9.091
G1 X40.909 Y8.264
G1 X42.562 Y8.264
G1 X43.802 Y9.091
G1 X46.281 Y9.091
G1 X49.587 Y10.331
G1 X56.198 Y8.264
G1 X55.372 Y7.851
G1 X59.504 Y18.182
G1 X52.893 Y15.702
G1 X48.760 Y16.942
G1 X46.281 Y15.702
G1 X39.669 Y20.248
G1 X37.603 Y19.008
G1 X39.669 Y19.008
G1 X36.777 Y17.355
G1 X38.017 Y13.636
G1 X35.950 Y15.289
G1 X33.884 Y14.876
G1 X36.777 Y10.331
G0 Z1

G0 X36.364 Y10.331
G1 Z0

G1 X35.537 Y9.917
G1 X34.711 Y10.331
G1 X36.777 Y13.223
G1 X38.430 Y12.810
G1 X39.669 Y11.570
G1 X37.603 Y9.917
G1 X38.843 Y10.331
G1 X38.017 Y9.091
G1 X39.669 Y8.264
G1 X41.322 Y8.264
G1 X42.149 Y10.331
G1 X41.322 Y10.744
G1 X42.562 Y9.917
G1 X41.736 Y13.636
G1 X40.909 Y13.223
G1 X40.496 Y11.983
G1 X41.322 Y12.397
G1 X40.496 Y14.050
G1 X39.669 Y13.636
G1 X38.430 Y13.636
G1 X39.669 Y12.397
G1 X39.669 Y10.744
G1 X40.909 Y9.504
G1 X41.736 Y9.917
G1 X42.562 Y9.504
G1 X42.149 Y7.025
G1 X37.603 Y4.545
G1 X38.430 Y7.438
G1 X39.256 Y5.785
G1 X38.430 Y6.612
G1 X38.017 Y3.306
G1 X37.190 Y2.893
G1 X36.364 Y3.306
G1 X36.777 Y5.785
G1 X36.364 Y4.959
G1 X37.603 Y2.479
G1 X40.909 Y4.132
G1 X39.669 Y1.653
G1 X40.496 Y1.240
G1 X41.736 Y1.240
G1 X42.562 Y1.240
G1 X43.388 Y2.066
G1 X50.826 Y5.372
G1 X50.000 Y2.893
G1 X53.306 Y3.719
G1 X52.893 Y4.959
G1 X51.653 Y4.959
G1 X51.240 Y.826
G1 X54.545 Y3.306
G1 X54.545 Y4.545
G1 X52.479 Y2.066
G1 X54.545 Y.826
G1 X52.066 Y1.240
G1 X40.909 Y5.785
G1 X44.215 Y3.306
G1 X42.562 Y3.306
G1 X41.322 Y2.479
G1 X40.496 Y2.479
G1 X36.777 Y.826
G1 X38.430 Y.826
G1 X38.017 Y2.479
G1 X47.521 Y6.198
G1 X49.587 Y5.372
G1 X49.587 Y3.306
G1 X43.802 Y7.025
G1 X43.802 Y5.372
G1 X47.521 Y4.132
G1 X46.694 Y4.959
G1 X45.868 Y4.959
G1 X39.669 Y2.479
G1 X39.669 Y6.612
G1 X42.975 Y6.612
G1 X38.843 Y12.810
G1 X32.231 Y17.355
G1 X35.537 Y16.942
G1 X35.950 Y21.901
G1 X34.298 Y22.314
G1 X33.058 Y21.488
G1 X31.818 Y21.074
G1 X32.231 Y21.901
G1 X31.818 Y23.554
G1 X34.298 Y24.793
G1 X36.777 Y23.967
G1 X35.537 Y23.140
G1 X37.190 Y20.661
G1 X37.603 Y19.421
G1 X35.950 Y19.008
G1 X40.083 Y22.314
G1 X38.430 Y21.901
G1 X38.843 Y22.727
G1 X37.190 Y23.554
G1 X34.298 Y30.579
G1 X35.124 Y29.752
G1 X32.645 Y30.165
G1 X32.231 Y28.512
G1 X33.058 Y28.512
G1 X36.364 Y24.380
G1 X35.124 Y23.140
G1 X32.645 Y26.446
G1 X34.298 Y28.512
G1 X34.298 Y27.273
G1 X30.992 Y24.793
G1 X26.446 Y27.273
G1 X28.099 Y28.512
G1 X30.579 Y26.033
G1 X28.512 Y24.380
G1 X26.446 Y25.620
G1 X27.686 Y26.033
G1 X30.579 Y27.686
G1 X30.165 Y26.860
G1 X28.926 Y25.620
G1 X27.686 Y25.620
G1 X22.314 Y28.512
G1 X23.554 Y30.165
G1 X23.140 Y26.033
G1 X24.793 Y23.554
G1 X24.380 Y22.314
G1 X25.207 Y20.661
G1 X26.446 Y17.355
G1 X25.620 Y17.769
G1 X25.620 Y19.008
G1 X26.033 Y19.835
G1 X27.273 Y17.355
G1 X27.686 Y16.116
G1 X28.099 Y16.942
G1 X28.512 Y19.008
G1 X29.339 Y17.769
G1 X29.752 Y18.595
G1 X30.165 Y16.529
G1 X29.339 Y16.116
G1 X29.339 Y14.463
G1 X30.165 Y13.223
G1 X30.165 Y14.463
G1 X30.992 Y24.380
G1 X32.645 Y21.901
G1 X33.884 Y22.314
G1 X35.124 Y20.661
G1 X37.603 Y23.140
G1 X38.430 Y22.314
G1 X37.603 Y22.314
G1 X38.017 Y21.074
G1 X36.364 Y21.488
G1 X36.364 Y20.248
G1 X33.884 Y20.661
G1 X33.471 Y21.488
G1 X32.231 Y19.008
G1 X38.430 Y16.116
G1 X35.950 Y18.595
G1 X33.471 Y17.769
G1 X31.405 Y22.727
G1 X34.711 Y23.140
G1 X35.537 Y22.727
G1 X34.711 Y24.380
G1 X34.711 Y28.512
G1 X32.645 Y27.273
G1 X32.231 Y26.446
G1 X32.231 Y24.793
G1 X33.058 Y23.967
G1 X33.884 Y23.554
G1 X35.124 Y21.901
G1 X34.711 Y19.008
G1 X33.471 Y19.835
G1 X35.537 Y20.661
G1 X40.496 Y21.901
G1 X48.347 Y19.421
G1 X49.587 Y19.421
G1 X51.653 Y20.248
G1 X50.826 Y20.661
G1 X52.479 Y22.314
G1 X53.306 Y22.727
G1 X54.959 Y23.140
G1 X54.545 Y22.314
G1 X52.479 Y23.967
G1 X46.694 Y26.033
G1 X44.628 Y26.033
G1 X45.455 Y28.512
G1 X42.975 Y27.686
G1 X42.975 Y28.512
G1 X42.562 Y27.686
G1 X51.240 Y27.686
G1 X50.000 Y28.512
G1 X51.240 Y28.512
G1 X52.479 Y29.752
G1 X51.240 Y29.752
G1 X49.174 Y30.165
G1 X48.760 Y31.405
G1 X47.521 Y33.884
G1 X48.760 Y34.298
G1 X50.413 Y33.058
G1 X51.240 Y33.471
G1 X52.479 Y32.645
G1 X49.587 Y31.818
G1 X48.347 Y33.058
G1 X50.413 Y36.364
G1 X51.653 Y35.124
G1 X53.719 Y35.537
G1 X52.893 Y36.777
G1 X50.826 Y47.521
G1 X50.826 Y49.174
G1 X51.240 Y50.000
G1 X50.000 Y50.000
G1 X51.240 Y50.826
G1 X50.413 Y52.066
G1 X50.413 Y51.240
G1 X61.157 Y51.240
G1 X61.570 Y47.934
G1 X63.223 Y47.521
G1 X64.050 Y46.694
G1 X66.529 Y41.736
G1 X67.355 Y40.909
G1 X68.595 Y39.256
G1 X69.421 Y38.843
G1 X70.248 Y39.669
G1 X70.661 Y41.322
G1 X68.595 Y41.322
G1 X69.421 Y41.736
G1 X70.248 Y43.388
G1 X71.488 Y45.041
G1 X72.314 Y44.215
G1 X71.901 Y45.041
G1 X71.901 Y41.736
G1 X73.140 Y41.736
G1 X72.727 Y42.975
G1 X71.488 Y42.149
G1 X71.074 Y42.975
G1 X71.488 Y43.802
G1 X71.488 Y44.628
G1 X73.554 Y44.628
G1 X71.901 Y48.760
G1 X70.248 Y50.413
G1 X69.008 Y50.000
G1 X67.355 Y50.000
G1 X67.769 Y49.174
G1 X68.182 Y47.934
G1 X66.942 Y47.107
G1 X66.529 Y46.281
G1 X67.355 Y47.107
G1 X66.529 Y47.934
G1 X64.876 Y48.347
G1 X64.876 Y49.587
G1 X62.397 Y50.826
G1 X63.223 Y50.000
G1 X61.570 Y50.413
G1 X64.876 Y46.281
G1 X66.116 Y44.628
G1 X66.942 Y42.149
G1 X71.901 Y36.777
G1 X72.314 Y37.603
G1 X72.727 Y38.430
G1 X74.380 Y38.017
G1 X75.207 Y39.669
G1 X75.207 Y40.496
G1 X79.752 Y43.802
G1 X68.595 Y52.066
G1 X69.421 Y52.893
G1 X71.901 Y52.893
G1 X69.421 Y51.240
G1 X66.529 Y51.240
G1 X67.355 Y52.479
G1 X72.727 Y58.264
G1 X71.488 Y57.851
G1 X71.901 Y57.025
G1 X72.727 Y57.438
G1 X71.074 Y54.959
G1 X70.661 Y55.785
G1 X71.901 Y54.545
G1 X72.314 Y53.306
G1 X70.661 Y53.306
G1 X67.769 Y54.132
G1 X68.595 Y55.372
G1 X66.529 Y56.612
G1 X65.702 Y55.785
G1 X66.529 Y54.959
G1 X66.116 Y54.132
G1 X64.463 Y54.545
G1 X65.702 Y55.372
G1 X68.595 Y53.306
G1 X66.942 Y53.306
G1 X66.116 Y54.545
G1 X64.876 Y54.132
G1 X60.331 Y55.785
G1 X58.678 Y55.785
G1 X57.438 Y54.545
G1 X55.372 Y55.372
G1 X51.653 Y55.785
G1 X54.132 Y54.545
G1 X55.785 Y54.959
G1 X54.959 Y53.306
G1 X57.025 Y54.959
G1 X57.851 Y54.545
G1 X56.198 Y55.785
G1 X59.091 Y56.198
G1 X57.438 Y59.091
G1 X59.917 Y60.744
G1 X62.810 Y60.331
G1 X59.917 Y61.983
G1 X55.785 Y58.678
G1 X56.612 Y57.025
G1 X54.545 Y57.025
G1 X53.719 Y57.438
G1 X52.066 Y57.025
G1 X51.653 Y53.306
G1 X52.479 Y54.132
G1 X52.893 Y55.372
G1 X52.066 Y54.959
G1 X51.240 Y56.198
G1 X51.240 Y53.719
G1 X52.066 Y51.240
G1 X63.223 Y49.587
G1 X66.529 Y49.587
G1 X72.727 Y56.198
G1 X69.008 Y56.612
G1 X71.074 Y58.264
G1 X69.008 Y59.504
G1 X68.182 Y58.264
G1 X68.595 Y60.331
G1 X66.942 Y59.504
G1 X63.636 Y61.570
G1 X61.570 Y61.570
G1 X51.240 Y57.438
G1 X52.066 Y58.678
G1 X58.264 Y61.157
G1 X55.372 Y59.504
G1 X59.504 Y58.264
G1 X54.545 Y57.438
G1 X52.066 Y52.893
G1 X52.066 Y52.066
G1 X53.719 Y54.959
G1 X54.545 Y54.959
G1 X54.545 Y52.893
G1 X55.785 Y53.306
G1 X55.785 Y54.545
G1 X61.570 Y53.306
G1 X61.983 Y54.132
G1 X58.678 Y54.545
G1 X59.504 Y54.132
G1 X68.182 Y56.612
G1 X69.008 Y58.264
G1 X67.769 Y58.678
G1 X66.116 Y57.438
G1 X66.529 Y60.331
G1 X61.983 Y63.636
G1 X62.397 Y61.983
G1 X61.157 Y60.331
G1 X62.810 Y59.504
G1 X61.983 Y60.331
G1 X65.289 Y73.554
G1 X68.595 Y72.727
G1 X68.595 Y71.901
G1 X65.289 Y66.116
G1 X64.050 Y66.116
G1 X65.702 Y67.355
G1 X65.702 Y69.421
G1 X61.157 Y69.421
G1 X61.570 Y68.595
G1 X63.636 Y67.769
G1 X60.744 Y66.116
G1 X61.157 Y65.289
G1 X61.570 Y62.397
G1 X60.331 Y60.744
G1 X59.504 Y57.851
G1 X60.331 Y57.025
G1 X61.157 Y54.132
G1 X60.331 Y54.959
G1 X59.504 Y55.785
G1 X58.678 Y57.851
G1 X57.438 Y58.264
G1 X57.438 Y56.612
G1 X55.785 Y55.372
G1 X57.025 Y54.545
G1 X57.438 Y53.719
G1 X56.198 Y53.719
G1 X46.694 Y60.331
G1 X47.934 Y60.331
G1 X45.041 Y61.983
G1 X45.868 Y62.397
G1 X49.174 Y62.397
G1 X53.719 Y58.264
G1 X51.240 Y59.091
G1 X52.479 Y60.744
G1 X51.653 Y61.983
G1 X50.000 Y61.983
G1 X51.240 Y60.744
G1 X50.413 Y59.917
G1 X51.240 Y54.545
G1 X50.826 Y53.719
G1 X50.000 Y54.132
G1 X46.694 Y56.198
G1 X47.521 Y54.959
G1 X46.281 Y52.893
G1 X46.281 Y47.934
G1 X44.628 Y44.215
G1 X44.628 Y42.562
G1 X44.628 Y39.256
G1 X46.281 Y38.843
G1 X44.215 Y37.190
G1 X43.802 Y38.430
G1 X44.215 Y42.562
G1 X43.802 Y44.215
G1 X43.388 Y46.281
G1 X44.215 Y46.694
G1 X42.975 Y48.347
G1 X42.562 Y47.521
G1 X41.736 Y47.107
G1 X40.909 Y48.347
G1 X40.909 Y45.868
G1 X40.496 Y45.041
G1 X40.496 Y44.215
G1 X40.083 Y43.388
G1 X41.322 Y43.802
G1 X42.562 Y37.603
G1 X41.736 Y38.017
G1 X40.496 Y38.430
G1 X40.083 Y39.256
G1 X39.256 Y40.909
G1 X40.496 Y42.562
G1 X36.364 Y45.868
G1 X34.711 Y47.521
G1 X32.645 Y47.934
G1 X32.645 Y50.000
G1 X31.818 Y50.000
G1 X30.165 Y49.587
G1 X38.017 Y56.198
G1 X38.017 Y58.678
G1 X35.537 Y55.785
G1 X34.298 Y58.264
G1 X35.537 Y61.157
G1 X34.711 Y60.331
G1 X33.058 Y61.157
G1 X33.058 Y60.331
G1 X30.992 Y58.264
G1 X30.165 Y58.678
G1 X23.140 Y54.545
G1 X26.446 Y55.785
G1 X25.207 Y54.545
G1 X22.727 Y57.438
G1 X23.554 Y60.331
G1 X22.727 Y61.570
G1 X20.248 Y63.636
G1 X20.248 Y64.876
G1 X20.661 Y65.702
G1 X20.661 Y66.942
G1 X19.008 Y65.702
G1 X18.595 Y64.463
G1 X17.769 Y66.942
G1 X18.595 Y67.355
G1 X18.182 Y69.835
G1 X18.595 Y79.339
G1 X22.314 Y83.884
G1 X22.314 Y86.777
G1 X20.661 Y86.364
G1 X21.074 Y85.537
G1 X22.727 Y88.843
G1 X21.488 Y87.190
G1 X21.901 Y86.364
G1 X21.074 Y87.190
G1 X20.248 Y81.818
G1 X19.008 Y80.165
G1 X20.248 Y77.686
G1 X19.008 Y75.207
G1 X18.595 Y73.140
G1 X21.488 Y76.446
G1 X20.661 Y80.165
G1 X27.686 Y88.430
G1 X25.620 Y90.083
G1 X24.380 Y89.669
G1 X29.339 Y85.950
G1 X30.165 Y85.124
G1 X30.165 Y84.298
G1 X29.752 Y83.471
G1 X28.512 Y85.950
G1 X30.992 Y88.843
G1 X29.752 Y89.669
G1 X30.579 Y90.083
G1 X31.818 Y90.083
G1 X28.512 Y91.736
G1 X28.926 Y90.909
G1 X30.165 Y89.669
G1 X28.512 Y86.777
G1 X28.512 Y87.603
G1 X30.579 Y85.950
G1 X27.686 Y83.058
G1 X27.273 Y84.711
G1 X27.686 Y85.537
G1 X23.967 Y83.058
G1 X23.967 Y84.298
G1 X24.380 Y86.364
G1 X25.620 Y86.777
G1 X26.446 Y85.124
G1 X26.033 Y83.471
G1 X26.033 Y82.645
G1 X29.752 Y82.645
G1 X28.512 Y80.579
G1 X28.926 Y81.818
G1 X29.752 Y80.579
G1 X28.926 Y78.926
G1 X31.818 Y82.231
G1 X32.231 Y84.298
G1 X31.818 Y83.471
G1 X35.950 Y76.446
G1 X34.711 Y73.967
G1 X33.058 Y78.099
G1 X33.471 Y77.273
G1 X36.777 Y82.645
G1 X36.777 Y81.818
G1 X38.017 Y80.992
G1 X38.017 Y82.645
G1 X37.190 Y83.884
G1 X38.017 Y84.711
G1 X38.017 Y83.884
G1 X39.669 Y82.645
G1 X39.669 Y79.752
G1 X41.322 Y77.686
G1 X40.496 Y80.165
G1 X41.322 Y81.818
G1 X44.215 Y80.165
G1 X52.893 Y80.165
G1 X50.413 Y81.405
G1 X52.066 Y82.645
G1 X50.000 Y84.298
G1 X51.653 Y83.884
G1 X53.719 Y81.405
G1 X56.198 Y80.992
G1 X54.959 Y81.818
G1 X55.785 Y84.711
G1 X53.719 Y81.818
G1 X53.719 Y83.058
G1 X50.000 Y80.579
G1 X47.107 Y83.471
G1 X42.149 Y82.645
G1 X45.041 Y71.901
G1 X42.562 Y73.967
G1 X43.388 Y76.033
G1 X50.826 Y73.140
G1 X51.653 Y71.074
G1 X53.306 Y76.446
G1 X51.240 Y75.620
G1 X47.934 Y75.620
G1 X47.107 Y74.793
G1 X45.455 Y71.901
G1 X49.174 Y73.554
G1 X47.107 Y71.901
G1 X45.041 Y69.835
G1 X48.760 Y69.835
G1 X38.017 Y71.901
G1 X38.430 Y73.554
G1 X39.256 Y74.380
G1 X41.322 Y74.380
G1 X40.083 Y75.207
G1 X41.322 Y75.620
G1 X40.909 Y73.554
G1 X40.083 Y73.967
G1 X39.669 Y73.140
G1 X36.364 Y74.380
G1 X36.777 Y75.207
G1 X35.537 Y74.380
G1 X33.884 Y74.793
G1 X32.645 Y73.967
G1 X32.645 Y73.140
G1 X25.620 Y76.446
G1 X27.273 Y74.793
G1 X25.207 Y73.967
G1 X22.727 Y66.942
G1 X22.314 Y67.769
G1 X22.314 Y69.835
G1 X23.140 Y71.074
G1 X20.661 Y72.727
G1 X19.008 Y72.727
G1 X20.248 Y74.380
G1 X22.727 Y76.860
G1 X21.901 Y79.339
G1 X21.901 Y80.579
G1 X21.488 Y81.818
G1 X21.074 Y83.884
G1 X21.901 Y84.711
G1 X21.901 Y82.231
G1 X23.140 Y83.884
G1 X28.099 Y80.992
G1 X27.273 Y80.992
G1 X27.273 Y79.752
G1 X28.099 Y79.339
G1 X29.752 Y80.992
G1 X30.992 Y85.124
G1 X31.818 Y85.950
G1 X34.711 Y84.711
G1 X35.124 Y83.884
G1 X36.364 Y83.058
G1 X35.124 Y81.405
G1 X35.950 Y80.579
G1 X35.950 Y78.512
G1 X35.537 Y79.339
G1 X35.537 Y80.165
G1 X34.298 Y76.033
G1 X32.645 Y75.620
G1 X32.231 Y73.967
G1 X31.818 Y72.314
G1 X31.405 Y71.488
G1 X29.339 Y69.835
G1 X29.752 Y71.074
G1 X23.554 Y68.182
G1 X23.967 Y69.008
G1 X24.793 Y70.248
G1 X25.620 Y72.314
G1 X26.860 Y71.074
G1 X26.860 Y70.248
G1 X25.620 Y70.661
G1 X26.033 Y69.835
G1 X26.033 Y68.182
G1 X23.554 Y66.942
G1 X23.140 Y66.116
G1 X26.446 Y66.942
G1 X18.595 Y61.983
G1 X18.595 Y63.636
G1 X19.421 Y64.876
G1 X22.314 Y76.033
G1 X21.901 Y78.512
G1 X23.554 Y78.926
G1 X22.727 Y78.512
G1 X23.140 Y77.273
G1 X28.926 Y76.860
G1 X27.686 Y75.207
G1 X29.339 Y72.727
G1 X29.752 Y73.554
G1 X30.165 Y74.380
G1 X29.752 Y75.207
G1 X30.579 Y74.380
G1 X30.579 Y75.620
G1 X30.992 Y79.339
G1 X29.752 Y80.165
G1 X39.669 Y91.322
G1 X40.909 Y91.736
G1 X40.083 Y90.909
G1 X38.430 Y90.909
G1 X37.603 Y91.736
G1 X39.256 Y92.562
G1 X38.843 Y91.736
G1 X35.124 Y90.083
G1 X36.364 Y88.430
G1 X37.190 Y88.017
G1 X36.364 Y89.256
G1 X39.669 Y88.843
G1 X40.083 Y85.950
G1 X39.256 Y87.190
G1 X42.149 Y87.190
G1 X42.975 Y88.017
G1 X43.802 Y88.017
G1 X35.950 Y91.736
G1 X37.190 Y90.083
G1 X48.347 Y96.694
G1 X49.587 Y100.000
G1 X50.826 Y98.347
G1 X50.413 Y97.521
G1 X51.240 Y98.347
G1 X50.826 Y99.174
G1 X49.587 Y98.760
G1 X50.000 Y100.000
G1 X51.240 Y100.000
G1 X51.240 Y98.760
G1 X54.132 Y99.174
G1 X52.479 Y97.934
G1 X51.653 Y97.934
G1 X55.372 Y96.281
G1 X57.025 Y95.868
G1 X59.091 Y97.521
G1 X59.504 Y96.694
G1 X61.570 Y97.107
G1 X61.570 Y95.455
G1 X60.331 Y95.041
G1 X55.785 Y92.149
G1 X55.785 Y91.322
G1 X54.132 Y89.669
G1 X52.893 Y90.083
G1 X51.653 Y90.083
G1 X52.479 Y89.669
G1 X54.545 Y90.496
G1 X53.719 Y92.149
G1 X54.959 Y92.149
G1 X54.959 Y92.975
G1 X56.198 Y93.802
G1 X57.025 Y92.562
G1 X55.785 Y90.496
G1 X57.438 Y90.909
G1 X60.744 Y93.388
G1 X66.116 Y92.149
G1 X64.050 Y88.843
G1 X64.050 Y90.496
G1 X64.876 Y91.322
G1 X66.116 Y88.017
G1 X64.463 Y88.843
G1 X67.355 Y91.736
G1 X69.008 Y89.669
G1 X68.595 Y92.149
G1 X68.182 Y91.322
G1 X67.355 Y92.149
G1 X65.702 Y92.975
G1 X64.463 Y92.975
G1 X64.463 Y90.496
G1 X63.223 Y90.909
G1 X59.504 Y94.215
G1 X58.678 Y93.388
G1 X62.397 Y90.496
G1 X60.331 Y91.322
G1 X60.744 Y92.149
G1 X61.570 Y92.149
G1 X59.504 Y80.579
G1 X60.331 Y79.752
G1 X53.306 Y73.140
G1 X54.545 Y71.901
G1 X56.612 Y72.314
G1 X57.025 Y71.488
G1 X55.372 Y72.314
G1 X54.959 Y73.967
G1 X54.545 Y76.033
G1 X54.959 Y77.273
G1 X56.198 Y75.207
G1 X57.438 Y78.926
G1 X57.851 Y84.298
G1 X57.438 Y83.471
G1 X57.438 Y82.645
G1 X56.612 Y80.579
G1 X48.760 Y76.033
G1 X45.041 Y75.620
G1 X51.653 Y79.339
G1 X47.521 Y79.752
G1 X46.281 Y79.752
G1 X45.868 Y78.926
G1 X43.802 Y72.314
G1 X42.562 Y73.140
G1 X43.802 Y73.554
G1 X42.975 Y75.620
G1 X47.107 Y72.314
G1 X46.281 Y71.901
G1 X44.215 Y82.231
G1 X42.562 Y82.231
G1 X41.736 Y81.818
G1 X42.562 Y76.860
G1 X44.215 Y77.686
G1 X43.388 Y80.165
G1 X44.628 Y78.926
G1 X47.934 Y83.058
G1 X50.000 Y83.884
G1 X47.521 Y80.992
G1 X48.760 Y81.405
G1 X50.826 Y83.058
G1 X48.347 Y84.298
G1 X49.587 Y86.777
G1 X48.347 Y88.017
G1 X41.736 Y91.736
G1 X41.736 Y90.496
G1 X40.909 Y90.496
G1 X42.149 Y89.256
G1 X46.694 Y93.802
G0 Z1

G0 X46.694 Y94.215
G1 Z0

G1 X45.868 Y93.802
G1 X40.909 Y95.041
G1 X42.149 Y93.388
G1 X41.322 Y92.975
G1 X40.496 Y93.802
G1 X36.777 Y92.975
G1 X35.950 Y93.388
G1 X33.058 Y92.975
G1 X30.992 Y91.322
G1 X29.752 Y91.736
G1 X28.099 Y94.215
G1 X26.033 Y92.562
G1 X30.579 Y94.628
G1 X29.752 Y95.455
G1 X30.992 Y96.281
G1 X33.471 Y97.934
G1 X34.711 Y98.347
G1 X26.860 Y90.496
G1 X26.033 Y91.736
G1 X30.579 Y90.496
G1 X31.818 Y90.909
G1 X32.645 Y91.322
G1 X33.471 Y91.322
G1 X33.058 Y92.149
G1 X27.686 Y90.909
G1 X28.512 Y89.256
G1 X26.033 Y90.083
G1 X25.620 Y91.736
G1 X23.554 Y88.843
G1 X24.793 Y88.843
G1 X23.967 Y89.669
G1 X22.727 Y89.256
G1 X21.901 Y88.430
G1 X23.140 Y88.430
G0 Z1

G0 X23.140 Y88.843
G1 Z0

G1 X23.554 Y89.669
G1 X24.380 Y90.909
G1 X25.207 Y91.736
G1 X26.033 Y92.149
G1 X31.405 Y92.149
G1 X29.339 Y93.388
G1 X30.992 Y95.041
G1 X37.190 Y98.347
G1 X50.413 Y98.347
G1 X49.174 Y95.041
G1 X52.066 Y98.760
G1 X52.066 Y97.521
G1 X50.000 Y99.174
G1 X52.066 Y99.174
G1 X54.545 Y97.521
G1 X54.132 Y95.455
G1 X54.959 Y94.628
G1 X57.025 Y97.934
G1 X59.917 Y96.281
G1 X63.223 Y98.347
G1 X60.331 Y99.587
G1 X59.091 Y99.587
G1 X61.157 Y97.934
G1 X64.050 Y97.107
G1 X61.157 Y96.281
G1 X54.959 Y93.802
G1 X59.504 Y97.521
G1 X64.876 Y95.041
G1 X65.289 Y93.802
G1 X66.942 Y92.975
G1 X74.380 Y82.645
G1 X75.620 Y84.298
G1 X75.207 Y86.777
G1 X73.967 Y88.430
G1 X72.314 Y88.017
G1 X72.727 Y86.777
G1 X78.099 Y78.099
G1 X77.686 Y79.752
G1 X78.099 Y80.579
G1 X77.686 Y81.818
G1 X76.859 Y85.124
G1 X76.033 Y85.950
G1 X74.793 Y84.711
G1 X74.793 Y86.777
G1 X74.380 Y85.950
G1 X74.793 Y88.430
G1 X75.620 Y88.017
G1 X76.033 Y87.190
G1 X71.488 Y87.190
G1 X73.967 Y83.884
G1 X73.554 Y86.777
G1 X76.033 Y83.058
G1 X76.446 Y81.405
G1 X76.033 Y80.165
G1 X77.686 Y79.339
G1 X77.686 Y78.512
G1 X78.099 Y77.273
G1 X74.380 Y73.554
G1 X76.033 Y70.248
G1 X77.273 Y65.702
G1 X78.926 Y68.182
G1 X78.926 Y70.248
G1 X78.926 Y75.620
G1 X77.686 Y73.967
G1 X77.273 Y78.926
G1 X79.339 Y72.727
G1 X79.339 Y71.074
G1 X79.339 Y68.595
G1 X73.554 Y66.942
G1 X73.967 Y68.182
G1 X69.421 Y66.529
G1 X71.074 Y65.289
G1 X70.661 Y64.050
G1 X72.314 Y60.744
G1 X73.554 Y62.810
G1 X73.554 Y65.702
G1 X75.207 Y66.116
G1 X76.446 Y61.157
G1 X75.620 Y61.983
G1 X75.620 Y63.223
G1 X75.207 Y61.983
G1 X74.793 Y59.917
G1 X75.620 Y58.678
G1 X74.793 Y57.438
G1 X76.033 Y56.612
G1 X76.859 Y55.785
G1 X76.033 Y54.959
G1 X74.793 Y39.256
G1 X73.554 Y38.017
G1 X73.140 Y38.843
G1 X72.727 Y37.603
G1 X75.620 Y35.124
G1 X75.620 Y33.471
G1 X73.967 Y31.405
G1 X73.140 Y31.818
G1 X72.727 Y32.645
G1 X72.727 Y33.471
G1 X70.248 Y36.777
G1 X70.248 Y34.711
G1 X71.901 Y33.884
G1 X71.488 Y31.405
G1 X72.314 Y29.752
G1 X74.380 Y28.926
G1 X71.074 Y26.446
G1 X71.901 Y26.033
G1 X70.661 Y28.099
G1 X70.661 Y26.860
G1 X70.248 Y27.686
G1 X64.876 Y32.231
G1 X63.636 Y30.165
G1 X64.876 Y33.471
G1 X68.595 Y32.231
G1 X69.008 Y35.537
G1 X67.355 Y33.058
G1 X66.529 Y33.884
G1 X73.554 Y28.512
G1 X74.793 Y31.405
G1 X74.380 Y32.645
G1 X73.140 Y36.777
G1 X76.033 Y37.603
G1 X75.620 Y36.777
G1 X76.446 Y37.190
G1 X76.033 Y36.364
G1 X75.207 Y35.124
G1 X74.380 Y35.124
G1 X75.207 Y33.471
G1 X73.140 Y33.058
G1 X73.554 Y31.405
G1 X73.967 Y30.579
G1 X72.727 Y30.992
G1 X70.661 Y28.926
G1 X71.488 Y29.339
G1 X71.074 Y28.512
G1 X74.793 Y23.140
G1 X73.140 Y21.901
G1 X73.140 Y23.554
G1 X73.967 Y23.140
G1 X73.554 Y23.967
G1 X72.314 Y25.207
G1 X68.595 Y22.727
G1 X69.835 Y26.033
G1 X66.942 Y22.314
G1 X67.355 Y23.554
G1 X66.116 Y25.620
G1 X66.529 Y28.099
G1 X65.289 Y28.512
G1 X64.876 Y29.339
G1 X64.463 Y28.099
G1 X65.289 Y27.273
G1 X65.289 Y28.099
G1 X64.050 Y28.926
G1 X66.529 Y31.818
G1 X66.942 Y30.992
G1 X66.529 Y29.752
G1 X65.702 Y32.645
G1 X66.529 Y32.645
G1 X69.421 Y37.190
G1 X70.661 Y40.083
G1 X72.727 Y40.083
G1 X72.314 Y39.256
G1 X71.074 Y38.843
G1 X71.488 Y38.017
G1 X78.512 Y43.802
G1 X76.859 Y45.868
G1 X76.859 Y47.107
G1 X78.099 Y46.281
G1 X77.686 Y47.107
G1 X75.620 Y46.281
G1 X77.273 Y43.388
G1 X76.446 Y42.562
G1 X76.446 Y40.496
G1 X77.273 Y42.149
G1 X77.273 Y40.083
G1 X76.446 Y38.430
G1 X75.207 Y38.017
G1 X73.967 Y36.777
G1 X72.727 Y35.124
G1 X71.074 Y35.950
G1 X71.901 Y37.603
G1 X74.793 Y44.215
G1 X72.314 Y43.388
G1 X70.248 Y45.455
G1 X70.248 Y46.694
G1 X72.727 Y45.041
G1 X73.554 Y45.455
G1 X75.207 Y47.521
G1 X74.793 Y48.347
G1 X69.421 Y43.802
G1 X69.835 Y45.455
G1 X69.008 Y45.868
G1 X64.463 Y42.975
G1 X65.289 Y41.322
G1 X63.636 Y38.430
G1 X61.157 Y40.496
G1 X64.050 Y39.669
G1 X66.116 Y37.603
G1 X65.702 Y36.364
G1 X64.876 Y36.777
G1 X65.702 Y37.190
G1 X66.116 Y38.430
G1 X65.702 Y39.256
G1 X64.876 Y40.083
G1 X61.570 Y46.694
G1 X58.678 Y47.521
G1 X58.678 Y42.149
G1 X56.612 Y43.388
G1 X57.025 Y41.322
G1 X56.198 Y42.562
G1 X55.785 Y43.802
G1 X53.719 Y42.562
G1 X55.785 Y38.430
G1 X54.959 Y37.190
G1 X54.132 Y36.777
G1 X54.959 Y38.017
G1 X53.306 Y38.843
G1 X49.174 Y46.281
G1 X50.000 Y38.017
G1 X51.240 Y39.669
G1 X51.240 Y38.430
G1 X49.587 Y37.190
G1 X44.215 Y38.843
G1 X43.388 Y41.322
G1 X45.041 Y46.694
G1 X45.455 Y49.587
G1 X44.628 Y52.893
G1 X45.041 Y53.719
G1 X46.281 Y54.959
G1 X48.760 Y55.372
G1 X49.587 Y53.306
G1 X49.587 Y51.653
G1 X49.587 Y50.000
G1 X50.413 Y46.694
G1 X52.066 Y47.107
G1 X53.719 Y50.413
G1 X55.372 Y50.413
G1 X54.959 Y51.240
G1 X55.785 Y51.653
G1 X57.438 Y52.479
G1 X58.678 Y52.479
G1 X60.744 Y50.000
G1 X61.983 Y51.240
G1 X62.810 Y51.240
G1 X64.050 Y50.413
G1 X65.289 Y50.826
G1 X64.463 Y51.653
G1 X65.702 Y51.653
G1 X66.116 Y52.479
G1 X63.636 Y54.959
G1 X64.050 Y53.306
G1 X65.702 Y54.545
G1 X64.463 Y57.025
G1 X62.810 Y57.438
G1 X61.983 Y57.025
G1 X61.983 Y54.545
G1 X62.810 Y53.719
G1 X62.810 Y52.479
G1 X58.678 Y54.959
G1 X59.091 Y55.785
G1 X57.851 Y57.851
G1 X55.785 Y57.025
G1 X57.025 Y58.264
G1 X55.372 Y58.264
G1 X53.719 Y57.025
G1 X54.132 Y52.893
G1 X54.959 Y53.719
G1 X55.372 Y54.959
G1 X53.306 Y52.479
G1 X54.545 Y51.653
G1 X54.959 Y52.479
G1 X52.066 Y50.413
G1 X51.653 Y52.479
G1 X52.893 Y54.132
G1 X52.479 Y57.851
G1 X56.198 Y60.331
G1 X54.545 Y60.744
G1 X58.678 Y61.570
G1 X62.397 Y58.678
G1 X64.050 Y58.678
G1 X63.223 Y60.331
G1 X65.289 Y57.851
G1 X64.876 Y59.091
G1 X65.289 Y59.917
G1 X64.463 Y60.331
G1 X64.876 Y59.504
G1 X66.529 Y59.504
G1 X69.421 Y61.157
G1 X69.421 Y62.397
G1 X70.248 Y64.463
G1 X74.793 Y66.942
G1 X77.686 Y64.876
G1 X77.686 Y69.421
G1 X76.446 Y69.008
G1 X73.140 Y69.008
G1 X71.074 Y71.074
G1 X69.421 Y67.355
G1 X67.355 Y66.116
G1 X66.529 Y63.636
G1 X67.355 Y64.463
G1 X68.182 Y64.876
G1 X67.355 Y64.050
G1 X68.182 Y62.397
G1 X66.116 Y64.876
G1 X65.289 Y64.463
G1 X64.876 Y65.289
G1 X61.983 Y64.876
G1 X57.438 Y66.529
G1 X54.545 Y62.810
G1 X51.240 Y62.397
G1 X43.388 Y61.570
G1 X41.736 Y62.810
G1 X53.719 Y63.223
G1 X56.198 Y68.595
G1 X51.653 Y63.636
G1 X57.851 Y63.223
G1 X58.678 Y63.636
G1 X57.851 Y62.397
G1 X59.917 Y63.223
G1 X59.917 Y64.463
G1 X57.438 Y65.702
G1 X55.785 Y63.636
G1 X57.025 Y67.769
G1 X58.264 Y66.529
G1 X57.025 Y65.702
G1 X50.826 Y67.769
G1 X37.190 Y69.421
G1 X38.017 Y63.223
G1 X41.736 Y64.050
G1 X45.041 Y63.223
G1 X45.868 Y63.223
G1 X51.653 Y64.050
G1 X53.719 Y69.008
G1 X50.000 Y68.595
G1 X47.521 Y69.008
G1 X42.562 Y69.008
G1 X41.322 Y80.579
G1 X38.843 Y87.190
G1 X36.364 Y89.669
G1 X41.322 Y88.843
G1 X40.909 Y89.669
G1 X38.430 Y88.017
G1 X39.256 Y88.017
G1 X40.083 Y88.430
G1 X41.736 Y92.975
G1 X36.777 Y94.215
G1 X32.645 Y93.802
G1 X40.083 Y98.760
G1 X39.256 Y99.174
G1 X36.777 Y100.000
G1 X36.364 Y97.934
G1 X40.496 Y96.694
G1 X37.603 Y96.694
G1 X31.818 Y97.107
G1 X34.298 Y98.760
G1 X38.430 Y98.760
G1 X39.256 Y97.521
G1 X43.802 Y95.868
G1 X38.430 Y96.281
G1 X36.777 Y94.628
G1 X33.471 Y95.868
G1 X31.818 Y95.041
G1 X31.405 Y94.215
G1 X32.645 Y90.496
G1 X33.884 Y90.083
G1 X34.711 Y90.496
G1 X35.537 Y92.149
G1 X34.298 Y92.562
G1 X33.884 Y91.736
G1 X35.124 Y92.562
G1 X35.950 Y92.975
G1 X37.603 Y93.802
G1 X41.322 Y92.562
G1 X42.149 Y92.149
G1 X44.215 Y90.909
G1 X43.388 Y90.496
G1 X45.041 Y89.669
G1 X46.694 Y90.496
G1 X47.934 Y88.843
G1 X48.760 Y88.017
G1 X50.413 Y86.364
G1 X51.240 Y87.190
G1 X50.413 Y87.190
G1 X52.066 Y86.364
G1 X52.893 Y85.124
G1 X53.719 Y85.950
G1 X50.000 Y81.405
G1 X43.388 Y89.256
G1 X44.215 Y88.843
G1 X44.215 Y87.190
G1 X45.455 Y87.603
G1 X47.107 Y88.017
G1 X40.909 Y83.471
G1 X41.736 Y83.471
G1 X46.281 Y86.364
G1 X48.347 Y85.124
G1 X47.934 Y86.777
G1 X45.041 Y80.579
G1 X40.909 Y82.645
G1 X40.496 Y84.711
G1 X41.736 Y84.711
G1 X40.496 Y83.471
G1 X38.017 Y85.950
G1 X37.603 Y87.603
G1 X38.430 Y86.777
G1 X38.430 Y80.992
G1 X37.190 Y78.099
G1 X38.017 Y76.860
G1 X38.017 Y74.793
G1 X36.364 Y73.967
G1 X36.364 Y71.901
G1 X35.537 Y71.488
G1 X35.537 Y73.967
G1 X34.298 Y73.140
G1 X33.884 Y72.314
G1 X33.058 Y69.835
G1 X33.471 Y70.661
G1 X32.645 Y71.074
G1 X29.339 Y71.488
G1 X30.579 Y72.314
G1 X26.860 Y71.901
G1 X28.099 Y70.248
G1 X29.752 Y69.008
G1 X28.099 Y69.008
G1 X26.860 Y66.116
G1 X27.686 Y66.529
G1 X27.686 Y65.702
G1 X28.512 Y66.529
G1 X28.926 Y65.702
G1 X28.099 Y64.463
G1 X30.579 Y62.397
G1 X31.405 Y61.983
G1 X33.058 Y62.397
G1 X31.405 Y64.463
G1 X32.231 Y65.289
G1 X31.818 Y66.529
G1 X30.992 Y65.702
G1 X30.579 Y63.223
G1 X31.405 Y64.050
G1 X30.992 Y62.397
G1 X29.339 Y61.157
G1 X30.992 Y61.157
G1 X35.124 Y64.050
G1 X34.298 Y64.876
G1 X33.058 Y65.702
G1 X34.298 Y66.942
G1 X34.298 Y65.702
G1 X35.124 Y64.463
G1 X34.298 Y64.050
G1 X32.645 Y64.876
G1 X32.231 Y57.025
G1 X28.512 Y52.066
G1 X30.579 Y50.826
G1 X31.405 Y50.826
G1 X31.818 Y51.653
G1 X28.926 Y53.719
G1 X27.686 Y53.719
G1 X27.273 Y50.413
G1 X26.033 Y51.240
G1 X25.207 Y50.826
G1 X25.207 Y47.934
G1 X25.620 Y50.000
G1 X25.620 Y52.479
G1 X27.273 Y53.719
G1 X28.926 Y56.198
G1 X28.099 Y56.612
G1 X29.752 Y54.959
G1 X29.339 Y53.719
G1 X24.793 Y56.612
G1 X24.793 Y55.785
G1 X25.620 Y58.264
G1 X24.793 Y57.851
G1 X26.446 Y59.917
G1 X26.446 Y58.678
G1 X27.273 Y55.372
G1 X28.099 Y55.785
G1 X28.512 Y54.959
G1 X35.950 Y53.306
G1 X34.298 Y55.372
G1 X33.884 Y54.132
G1 X33.058 Y54.545
G1 X31.818 Y55.785
G1 X33.884 Y55.372
G1 X35.537 Y55.372
G1 X34.298 Y61.570
G1 X38.430 Y59.504
G1 X42.149 Y57.851
G1 X30.992 Y60.331
G1 X27.273 Y57.851
G1 X25.207 Y56.198
G1 X26.033 Y58.678
G1 X28.099 Y58.678
G1 X28.512 Y60.744
G1 X26.446 Y59.091
G1 X27.686 Y59.091
G1 X25.207 Y55.372
G1 X34.711 Y61.983
G1 X38.017 Y59.917
G1 X43.388 Y58.264
G1 X59.091 Y54.959
G1 X61.983 Y53.306
G1 X64.050 Y54.959
G1 X59.917 Y53.306
G1 X59.504 Y56.198
G1 X63.636 Y55.785
G1 X64.876 Y55.372
G1 X63.223 Y53.306
G1 X63.636 Y54.132
G1 X62.397 Y53.306
G1 X62.810 Y55.372
G1 X62.397 Y54.545
G1 X61.570 Y54.545
G1 X52.479 Y57.438
G1 X59.917 Y59.504
G1 X66.529 Y60.744
G1 X67.769 Y60.331
G1 X71.074 Y57.025
G1 X71.074 Y57.851
G1 X69.835 Y58.678
G1 X66.529 Y53.306
G1 X66.116 Y54.132
G1 X64.876 Y53.306
G1 X62.397 Y51.240
G1 X60.744 Y51.653
G1 X59.504 Y52.479
G1 X61.157 Y52.893
G1 X58.264 Y54.545
G1 X56.612 Y56.198
G1 X55.785 Y56.612
G1 X55.372 Y55.785
G1 X56.198 Y52.479
G1 X57.025 Y52.066
G1 X57.851 Y49.174
G1 X59.504 Y50.826
G1 X57.851 Y50.413
G1 X57.438 Y49.174
G1 X54.545 Y49.174
G1 X54.132 Y50.000
G1 X54.959 Y50.413
G1 X55.785 Y50.826
G1 X57.025 Y50.413
G1 X59.504 Y37.190
G1 X61.157 Y36.777
G1 X62.397 Y39.256
G1 X63.223 Y38.430
G1 X60.744 Y39.669
G1 X61.570 Y45.041
G1 X63.636 Y45.455
G1 X62.810 Y45.868
G1 X64.463 Y41.322
G1 X66.116 Y43.388
G1 X65.702 Y44.628
G1 X64.463 Y45.455
G1 X63.223 Y43.802
G1 X61.983 Y46.694
G1 X62.810 Y46.281
G1 X59.091 Y45.455
G1 X60.744 Y46.694
G1 X59.091 Y46.694
G1 X60.744 Y50.413
G1 X59.091 Y49.587
G1 X59.504 Y50.413
G1 X58.264 Y49.174
G1 X59.091 Y49.174
G1 X60.744 Y48.347
G1 X61.157 Y47.521
G1 X59.917 Y41.736
G1 X61.157 Y40.909
G1 X64.050 Y40.083
G1 X61.570 Y43.388
G1 X61.983 Y40.909
G1 X64.876 Y44.628
G1 X64.463 Y43.388
G1 X66.116 Y42.149
G1 X62.397 Y34.711
G1 X64.463 Y34.298
G1 X65.702 Y35.537
G1 X64.463 Y35.950
G1 X65.289 Y36.364
G1 X64.876 Y38.017
G1 X62.810 Y39.669
G1 X63.636 Y39.256
G1 X59.504 Y33.471
G1 X58.678 Y28.099
G1 X61.157 Y26.033
G1 X61.157 Y24.380
G1 X62.397 Y24.793
G1 X62.397 Y26.033
G1 X61.157 Y27.686
G1 X62.397 Y27.273
G1 X61.570 Y26.446
G1 X60.744 Y26.860
G1 X56.612 Y23.967
G1 X55.785 Y20.661
G1 X54.959 Y20.661
G1 X53.719 Y20.248
G1 X52.479 Y21.074
G1 X46.694 Y19.421
G1 X48.347 Y17.355
G1 X50.000 Y17.355
G1 X48.760 Y11.570
G1 X47.934 Y10.744
G1 X53.306 Y10.331
G1 X53.719 Y11.983
G1 X54.132 Y13.636
G1 X51.240 Y14.876
G1 X45.041 Y14.050
G1 X48.347 Y18.182
G1 X49.587 Y18.182
G1 X38.843 Y9.504
G1 X39.256 Y10.744
G1 X39.669 Y9.917
G1 X32.645 Y4.132
G1 X32.231 Y3.306
G1 X31.405 Y3.306
G1 X31.818 Y4.132
G1 X30.992 Y3.719
G1 X35.537 Y7.438
G1 X35.950 Y9.504
G1 X35.124 Y9.504
G1 X32.645 Y7.851
G1 X31.405 Y8.678
G1 X30.165 Y11.157
G1 X30.992 Y10.744
G1 X32.231 Y11.157
G1 X34.298 Y11.157
G1 X33.058 Y10.744
G1 X32.231 Y8.264
G1 X31.818 Y5.372
G1 X34.711 Y7.025
G1 X32.645 Y7.025
G1 X37.603 Y4.132
G1 X33.058 Y3.719
G1 X34.298 Y4.545
G1 X35.124 Y4.959
G1 X34.711 Y4.132
G1 X34.711 Y3.306
G1 X33.058 Y2.479
G1 X33.058 Y1.653
G1 X34.298 Y.826
G1 X35.950 Y1.653
G1 X43.802 Y1.653
G1 X49.587 Y1.653
G1 X45.041 Y3.306
G1 X42.975 Y2.893
G1 X41.736 Y2.479
G1 X42.562 Y2.066
G1 X42.149 Y3.719
G1 X42.149 Y4.545
G1 X40.909 Y2.479
G1 X40.083 Y6.612
G1 X41.736 Y4.545
G1 X40.909 Y4.545
G1 X40.083 Y4.132
G1 X40.083 Y2.893
G1 X47.107 Y4.132
G1 X47.934 Y5.785
G1 X48.347 Y4.959
G1 X49.587 Y7.025
G1 X52.066 Y5.785
G1 X52.893 Y5.372
G1 X54.132 Y6.198
G1 X50.413 Y4.959
G1 X50.826 Y2.893
G1 X49.587 Y.826
G1 X47.521 Y.826
G1 X47.107 Y2.066
G1 X48.347 Y2.479
G1 X45.455 Y4.545
G1 X44.628 Y5.372
G1 X44.628 Y6.198
G1 X43.388 Y6.612
G1 X43.388 Y7.438
G1 X41.322 Y21.074
G1 X44.628 Y19.835
G1 X43.802 Y18.595
G1 X45.041 Y17.769
G1 X42.562 Y17.769
G1 X47.107 Y14.876
G1 X49.174 Y16.116
G1 X47.521 Y10.744
G1 X48.347 Y11.570
G1 X42.975 Y11.570
G1 X45.868 Y13.636
G1 X47.934 Y13.636
G1 X57.025 Y15.702
G1 X58.678 Y17.355
G1 X60.744 Y16.116
G1 X61.570 Y15.289
G1 X61.983 Y13.636
G1 X60.331 Y13.223
G1 X58.678 Y14.050
G1 X57.851 Y12.810
G1 X57.438 Y13.636
G1 X59.504 Y11.570
G1 X60.744 Y11.983
G1 X61.570 Y11.157
G1 X61.570 Y10.331
G1 X60.744 Y10.744
G1 X60.744 Y9.504
G1 X59.917 Y9.504
G1 X56.612 Y9.917
G1 X55.785 Y11.157
G1 X55.785 Y10.331
G1 X54.545 Y10.331
G1 X54.132 Y11.157
G1 X57.851 Y11.570
G1 X55.785 Y12.810
G1 X49.587 Y13.223
G1 X52.893 Y11.157
G1 X50.413 Y10.331
G1 X52.893 Y13.636
G1 X53.719 Y13.223
G1 X54.545 Y13.636
G1 X55.785 Y14.463
G1 X56.198 Y13.636
G1 X54.545 Y14.876
G1 X53.719 Y14.050
G1 X57.025 Y15.289
G1 X57.438 Y14.463
G1 X57.025 Y13.636
G1 X56.612 Y14.463
G1 X59.504 Y17.769
G1 X60.331 Y16.942
G1 X61.983 Y18.182
G1 X61.983 Y16.116
G1 X62.810 Y17.355
G1 X64.050 Y16.116
G1 X64.876 Y16.942
G1 X64.050 Y17.769
G1 X65.702 Y19.421
G1 X65.702 Y17.769
G1 X67.355 Y16.116
G1 X68.182 Y15.702
G1 X66.529 Y17.355
G1 X66.116 Y18.595
G1 X67.769 Y16.942
G1 X67.769 Y18.182
G1 X67.769 Y19.421
G1 X71.074 Y17.769
G1 X71.488 Y16.942
G1 X70.248 Y17.769
G1 X76.859 Y11.983
G1 X79.752 Y10.331
G1 X84.711 Y5.785
G1 X76.033 Y10.331
G1 X77.273 Y9.917
G1 X71.488 Y14.463
G1 X72.727 Y11.570
G1 X73.140 Y10.744
G1 X73.967 Y10.331
G1 X74.380 Y8.264
G1 X74.380 Y6.612
G1 X72.314 Y5.372
G1 X72.727 Y6.198
G1 X71.488 Y7.851
G1 X70.248 Y14.876
G1 X72.314 Y11.983
G1 X73.140 Y12.397
G1 X73.554 Y13.636
G1 X74.380 Y13.223
G1 X74.380 Y10.744
G1 X74.793 Y11.570
G1 X73.967 Y20.248
G1 X74.793 Y22.314
G1 X73.967 Y21.901
G1 X71.074 Y20.248
G1 X70.248 Y21.074
G1 X66.942 Y8.678
G1 X68.595 Y8.264
G1 X67.769 Y10.331
G1 X67.355 Y11.157
G1 X68.595 Y9.917
G1 X69.008 Y8.678
G1 X67.769 Y8.678
G1 X67.355 Y7.851
G1 X63.223 Y.826
G1 X63.223 Y2.479
G1 X66.942 Y1.240
G1 X64.876 Y.826
G1 X64.876 Y1.653
G1 X66.116 Y2.893
G1 X64.876 Y2.479
G1 X63.636 Y2.893
G1 X64.050 Y3.719
G1 X62.810 Y6.198
G1 X66.529 Y11.570
G1 X70.248 Y7.025
G1 X73.140 Y7.438
G1 X73.554 Y9.091
G1 X73.554 Y11.157
G1 X73.967 Y14.050
G1 X68.595 Y10.331
G1 X72.727 Y7.851
G1 X71.488 Y11.983
G1 X69.835 Y12.810
G1 X69.421 Y14.050
G1 X68.595 Y16.942
G1 X69.835 Y15.702
G1 X68.182 Y14.876
G1 X66.116 Y13.636
G1 X67.355 Y14.050
G1 X68.595 Y13.223
G1 X69.835 Y11.983
G1 X70.248 Y9.917
G1 X73.967 Y18.595
G1 X71.488 Y18.182
G1 X71.488 Y16.116
G1 X72.727 Y16.942
G1 X73.140 Y15.289
G1 X74.380 Y14.876
G1 X74.380 Y16.116
G1 X74.380 Y18.182
G1 X74.380 Y20.248
G1 X74.380 Y22.314
G1 X73.554 Y23.140
G1 X71.074 Y23.967
G1 X71.074 Y29.339
G1 X71.901 Y31.405
G1 X73.140 Y32.645
G1 X70.248 Y33.884
G1 X71.074 Y37.190
G1 X75.207 Y31.405
G1 X75.620 Y33.058
G1 X75.620 Y35.950
G1 X71.901 Y36.364
G1 X75.620 Y39.256
G1 X72.727 Y38.843
G1 X68.182 Y28.099
G1 X69.421 Y26.033
G1 X69.421 Y27.273
G1 X68.595 Y28.512
G1 X68.182 Y27.273
G1 X67.769 Y25.620
G1 X69.008 Y23.967
G1 X67.355 Y22.314
G1 X69.421 Y19.835
G1 X66.529 Y18.595
G1 X66.116 Y14.876
G1 X59.091 Y12.397
G1 X59.917 Y13.223
G1 X59.917 Y9.917
G1 X62.397 Y12.810
G1 X60.744 Y12.397
G1 X61.570 Y12.810
G1 X65.289 Y10.331
G1 X66.116 Y9.917
G1 X65.702 Y8.678
G1 X67.769 Y7.025
G1 X62.810 Y5.372
G1 X64.050 Y1.653
G1 X60.331 Y2.066
G1 X55.785 Y3.719
G1 X54.959 Y3.719
G1 X58.264 Y.826
G1 X61.157 Y1.653
G1 X63.636 Y2.066
G1 X62.810 Y3.719
G1 X71.901 Y6.198
G1 X71.901 Y2.066
G1 X69.008 Y6.612
G1 X66.942 Y8.264
G1 X68.182 Y9.091
G1 X69.421 Y7.438
G1 X68.182 Y5.785
G1 X63.223 Y4.959
G1 X60.744 Y2.479
G1 X60.744 Y4.132
G1 X57.025 Y1.653
G1 X57.851 Y.826
G1 X58.678 Y1.240
G1 X57.851 Y2.479
G1 X56.612 Y2.893
G1 X51.653 Y2.893
G1 X50.826 Y4.132
G1 X52.479 Y7.438
G1 X52.893 Y6.612
G1 X49.587 Y6.198
G1 X47.107 Y5.785
G1 X44.215 Y5.785
G1 X43.388 Y5.372
G1 X43.802 Y4.545
G1 X41.322 Y2.893
G1 X39.256 Y2.479
G1 X40.909 Y4.959
G1 X38.843 Y6.198
G1 X39.256 Y2.893
G1 X35.537 Y6.198
G1 X36.777 Y3.306
G1 X38.430 Y3.306
G1 X38.843 Y.826
G1 X45.041 Y.826
G1 X44.215 Y1.240
G1 X41.322 Y1.653
G1 X40.083 Y2.066
G1 X45.455 Y2.066
G1 X44.628 Y2.893
G1 X43.802 Y2.479
G1 X47.107 Y2.479
G1 X48.347 Y1.653
G1 X47.107 Y1.240
G1 X45.041 Y1.240
G1 X45.868 Y.826
G1 X46.694 Y.826
G1 X45.455 Y1.653
G1 X31.405 Y6.198
G1 X30.579 Y1.240
G1 X29.752 Y.826
G1 X29.752 Y1.653
G1 X30.579 Y2.893
G1 X29.339 Y4.959
G1 X29.752 Y3.306
G1 X33.058 Y.826
G1 X38.430 Y2.066
G1 X36.364 Y.826
G1 X32.231 Y4.959
G1 X31.405 Y.826
G1 X33.471 Y3.306
G1 X35.124 Y4.545
G1 X36.364 Y2.066
G1 X34.298 Y3.306
G1 X33.058 Y1.240
G1 X35.950 Y.826
G1 X38.430 Y4.545
G1 X36.777 Y5.372
G1 X35.124 Y7.851
G1 X36.777 Y8.678
G1 X33.884 Y14.463
G1 X32.231 Y14.463
G1 X32.645 Y15.289
G1 X30.992 Y15.702
G1 X28.926 Y23.140
G1 X28.099 Y21.901
G1 X32.645 Y16.529
G1 X32.231 Y18.182
G1 X34.298 Y17.355
G1 X33.884 Y18.182
G1 X33.058 Y18.182
G1 X30.165 Y20.248
G1 X31.405 Y20.248
G1 X30.992 Y19.421
G1 X33.058 Y21.074
G1 X31.405 Y20.661
G1 X29.752 Y21.074
G1 X31.818 Y23.967
G1 X29.752 Y24.380
G1 X28.926 Y21.488
G1 X23.967 Y26.860
G1 X26.446 Y19.835
G1 X29.752 Y19.008
G1 X28.512 Y17.769
G1 X27.686 Y17.769
G1 X26.446 Y10.331
G1 X28.099 Y7.438
G1 X28.099 Y14.463
G1 X27.273 Y13.223
G1 X26.033 Y16.942
G1 X26.860 Y16.116
G1 X25.620 Y11.570
G1 X32.231 Y7.851
G1 X33.471 Y10.331
G1 X31.405 Y11.570
G1 X30.165 Y13.636
G1 X28.926 Y13.223
G1 X28.926 Y17.769
G1 X30.165 Y16.116
G1 X31.818 Y16.529
G1 X31.818 Y18.182
G1 X30.165 Y19.835
G1 X30.992 Y20.248
G1 X30.165 Y20.661
G1 X31.405 Y29.752
G1 X33.471 Y28.512
G1 X33.058 Y29.339
G1 X33.884 Y28.512
G1 X32.645 Y27.686
G1 X26.033 Y29.339
G1 X26.033 Y27.273
G1 X27.273 Y25.620
G1 X26.446 Y24.793
G1 X27.686 Y23.554
G1 X28.512 Y23.554
G1 X26.033 Y22.314
G1 X25.207 Y25.207
G1 X26.033 Y23.967
G1 X26.446 Y22.727
G1 X29.339 Y19.421
G1 X26.860 Y20.248
G1 X26.033 Y21.901
G1 X27.273 Y21.488
G1 X28.099 Y20.248
G1 X25.207 Y13.636
G1 X26.033 Y11.570
G1 X26.446 Y12.397
G1 X26.446 Y13.636
G1 X25.207 Y18.595
G1 X25.620 Y21.488
G1 X23.554 Y24.380
G1 X23.967 Y26.033
G1 X27.273 Y33.884
G1 X30.165 Y32.645
G1 X31.405 Y35.537
G1 X29.752 Y33.884
G1 X30.579 Y34.298
G1 X27.273 Y36.777
G1 X24.380 Y37.603
G1 X25.207 Y35.950
G1 X26.860 Y35.950
G1 X23.554 Y43.802
G1 X23.967 Y50.413
G1 X30.579 Y53.719
G1 X33.471 Y55.785
G1 X35.950 Y55.785
G1 X38.017 Y55.372
G1 X33.058 Y53.719
G1 X30.992 Y54.545
G1 X27.273 Y53.306
G1 X36.364 Y53.306
G1 X33.058 Y54.959
G1 X33.884 Y53.719
G1 X35.124 Y53.719
G1 X36.777 Y54.545
G1 X36.364 Y53.719
G1 X42.562 Y57.851
G1 X42.975 Y54.959
G1 X37.190 Y55.785
G1 X35.537 Y54.959
G1 X39.669 Y58.678
G1 X35.537 Y59.917
G1 X39.256 Y54.132
G1 X42.562 Y55.372
G1 X42.149 Y57.025
G1 X39.669 Y57.851
G1 X38.843 Y55.785
G1 X40.083 Y57.025
G1 X41.736 Y56.612
G1 X41.736 Y55.372
G1 X43.388 Y57.025
G1 X44.215 Y54.132
G1 X42.562 Y54.545
G1 X40.909 Y54.545
G1 X40.083 Y54.959
G1 X39.256 Y54.959
G1 X38.430 Y54.959
G1 X40.496 Y56.198
G1 X40.909 Y55.372
G1 X39.669 Y54.132
G1 X40.496 Y53.306
G1 X38.843 Y54.132
G1 X37.603 Y54.545
G1 X40.909 Y57.851
G1 X41.322 Y57.025
G1 X41.736 Y56.198
G1 X42.975 Y55.372
G1 X42.149 Y54.545
G1 X42.149 Y53.306
G1 X44.628 Y53.306
G1 X44.628 Y54.959
G1 X43.802 Y54.132
G1 X43.388 Y56.198
G1 X45.455 Y57.025
G1 X46.281 Y59.091
G1 X40.083 Y58.264
G1 X46.694 Y64.050
G1 X48.347 Y64.463
G1 X51.240 Y64.463
G1 X44.215 Y66.942
G1 X43.388 Y63.223
G1 X36.777 Y64.876
G1 X36.777 Y66.529
G1 X37.603 Y68.182
G1 X43.802 Y68.182
G1 X44.215 Y63.636
G1 X45.868 Y63.636
G1 X49.174 Y68.182
G1 X55.372 Y68.182
G1 X53.306 Y66.116
G1 X52.066 Y66.529
G1 X46.281 Y67.769
G1 X54.545 Y63.223
G1 X54.959 Y64.050
G1 X55.785 Y64.876
G1 X55.785 Y65.702
G1 X54.545 Y64.050
G1 X56.198 Y67.769
G1 X57.025 Y66.942
G1 X60.331 Y68.182
G1 X63.636 Y71.488
G1 X64.463 Y73.967
G1 X66.116 Y73.967
G1 X65.289 Y71.488
G1 X64.876 Y70.661
G1 X66.942 Y71.488
G1 X68.182 Y72.314
G1 X67.355 Y70.248
G1 X66.529 Y70.248
G1 X66.116 Y72.314
G1 X68.595 Y73.554
G1 X68.182 Y75.620
G1 X68.595 Y76.446
G1 X67.769 Y76.446
G1 X67.355 Y77.686
G1 X61.157 Y73.554
G1 X60.331 Y73.967
G1 X60.744 Y74.793
G1 X62.810 Y71.901
G1 X63.636 Y72.727
G1 X62.810 Y70.248
G1 X61.983 Y71.488
G1 X59.917 Y72.314
G1 X60.744 Y72.727
G1 X59.504 Y73.140
G1 X59.091 Y71.488
G1 X58.264 Y71.901
G1 X58.678 Y73.140
G1 X59.504 Y74.793
G1 X58.678 Y76.033
G1 X58.264 Y78.099
G1 X59.091 Y81.818
G1 X58.678 Y82.645
G1 X58.678 Y83.471
G1 X59.917 Y86.777
G1 X59.091 Y88.843
G1 X60.331 Y88.843
G1 X58.678 Y90.083
G1 X61.570 Y88.843
G1 X63.223 Y88.430
G1 X62.810 Y87.603
G1 X61.157 Y86.777
G1 X64.463 Y80.992
G1 X63.636 Y81.405
G1 X63.636 Y79.752
G1 X64.463 Y79.339
G1 X63.223 Y79.339
G1 X63.223 Y82.645
G1 X66.529 Y78.926
G1 X66.529 Y79.752
G1 X67.769 Y80.579
G1 X66.529 Y80.992
G1 X68.182 Y82.645
G1 X68.595 Y83.884
G1 X72.314 Y88.843
G1 X71.488 Y84.711
G1 X72.314 Y80.992
G1 X68.595 Y76.860
G1 X69.421 Y75.620
G1 X69.835 Y76.860
G1 X66.116 Y77.686
G1 X66.942 Y78.926
G1 X72.727 Y87.603
G1 X70.248 Y91.736
G1 X73.140 Y91.736
G1 X73.140 Y86.777
G1 X74.380 Y88.843
G1 X72.314 Y90.496
G1 X65.289 Y88.843
G1 X57.438 Y96.281
G1 X52.066 Y99.587
G1 X60.744 Y97.521
G1 X58.264 Y99.174
G1 X53.306 Y99.587
G1 X52.066 Y95.455
G1 X53.306 Y95.868
G1 X54.959 Y99.174
G1 X53.306 Y97.934
G1 X53.719 Y94.215
G1 X56.612 Y98.760
G1 X58.678 Y99.174
G1 X57.025 Y100.000
G1 X53.719 Y100.000
G1 X51.653 Y100.000
G1 X44.215 Y98.760
G1 X35.124 Y98.760
G1 X30.579 Y95.455
G1 X29.752 Y95.041
G1 X28.099 Y93.802
G1 X27.273 Y92.562
G1 X23.140 Y89.669
G1 X22.314 Y87.603
G1 X20.661 Y85.950
G1 X19.421 Y81.405
G1 X18.595 Y78.099
G1 X18.595 Y73.967
G1 X21.074 Y78.926
G1 X21.074 Y85.124
G1 X26.033 Y91.322
G1 X27.273 Y93.388
G1 X25.207 Y91.322
G1 X22.314 Y87.190
G1 X21.901 Y88.017
G1 X21.074 Y86.777
G1 X21.901 Y85.124
G1 X24.793 Y88.017
G1 X25.207 Y89.669
G1 X35.537 Y98.347
G1 X34.298 Y97.934
G1 X31.818 Y95.868
G1 X30.579 Y95.041
G1 X29.752 Y94.628
G1 X28.099 Y92.975
G1 X25.620 Y90.496
G1 X23.140 Y88.843
G0 Z1

G0 X23.140 Y88.017
G1 Z0

G1 X25.207 Y90.496
G1 X23.554 Y90.496
G1 X24.793 Y91.322
G1 X22.314 Y89.256
G1 X20.661 Y86.777
G1 X20.248 Y84.711
G1 X20.661 Y82.231
G1 X21.074 Y81.405
G1 X19.835 Y81.818
G1 X19.008 Y81.405
G1 X20.661 Y78.099
G1 X19.008 Y79.339
G1 X19.008 Y77.686
G1 X19.008 Y76.033
G1 X19.421 Y78.512
G1 X21.488 Y76.033
G1 X25.207 Y81.405
G1 X24.793 Y82.645
G1 X25.207 Y85.124
G1 X26.446 Y85.950
G1 X26.033 Y86.777
G1 X25.207 Y86.364
G1 X25.207 Y89.669
G1 X26.033 Y89.256
G1 X28.512 Y91.322
G1 X26.860 Y91.736
G1 X26.860 Y92.562
G1 X27.686 Y92.562
G1 X28.512 Y92.562
G1 X27.273 Y93.802
G1 X29.339 Y95.455
G1 X30.992 Y95.455
G1 X32.231 Y96.694
G1 X33.884 Y96.694
G1 X35.124 Y94.628
G1 X33.884 Y94.215
G1 X33.471 Y95.041
G1 X42.149 Y95.455
G1 X44.215 Y91.736
G1 X42.149 Y92.562
G1 X42.975 Y92.975
G1 X45.868 Y93.388
G1 X45.041 Y93.802
G1 X46.281 Y91.736
G1 X51.653 Y93.802
G1 X51.653 Y96.281
G1 X52.479 Y95.455
G1 X54.545 Y94.215
G1 X54.959 Y95.455
G1 X55.785 Y96.694
G1 X58.264 Y96.281
G1 X59.091 Y97.107
G1 X56.612 Y98.347
G1 X57.438 Y97.521
G1 X57.025 Y96.694
G1 X64.050 Y93.802
G1 X65.289 Y94.628
G1 X64.876 Y93.802
G1 X68.182 Y95.455
G1 X69.421 Y94.215
G1 X70.661 Y93.802
G1 X69.421 Y92.562
G1 X68.595 Y90.496
G1 X67.355 Y88.430
G1 X72.727 Y89.256
G1 X73.140 Y88.430
G1 X71.488 Y89.256
G1 X71.074 Y88.017
G1 X71.901 Y88.430
G1 X71.488 Y87.603
G1 X73.140 Y87.603
G1 X71.074 Y81.818
G1 X74.793 Y81.818
G1 X73.140 Y83.471
G1 X73.554 Y82.231
G1 X76.033 Y82.231
G1 X75.620 Y83.058
G1 X76.446 Y84.298
G1 X77.686 Y82.645
G1 X76.859 Y80.579
G1 X78.099 Y81.405
G1 X78.099 Y78.926
G1 X77.686 Y75.620
G1 X77.273 Y74.793
G1 X76.446 Y71.901
G1 X77.686 Y71.074
G1 X76.446 Y71.074
G1 X76.859 Y72.314
G1 X74.380 Y73.967
G1 X73.554 Y70.248
G1 X74.793 Y69.835
G1 X73.967 Y68.595
G1 X75.207 Y66.942
G1 X75.207 Y68.595
G1 X71.901 Y62.397
G1 X71.901 Y63.223
G1 X75.620 Y65.702
G1 X75.207 Y63.223
G1 X77.686 Y64.463
G1 X76.859 Y63.636
G1 X76.446 Y65.702
G1 X76.859 Y64.876
G1 X73.967 Y57.025
G1 X73.967 Y61.983
G1 X74.380 Y65.702
G1 X74.793 Y66.529
G1 X75.207 Y65.702
G1 X74.380 Y63.636
G1 X74.380 Y61.570
G1 X74.380 Y59.091
G1 X80.579 Y52.893
G1 X78.099 Y53.719
G1 X77.273 Y53.306
G1 X77.273 Y54.959
G1 X78.099 Y55.785
G1 X79.752 Y55.372
G1 X80.165 Y54.132
G1 X82.645 Y55.372
G1 X82.231 Y51.653
G1 X78.099 Y50.413
G1 X79.339 Y45.041
G1 X80.992 Y47.934
G1 X81.405 Y49.174
G1 X81.405 Y50.826
G1 X78.512 Y50.000
G1 X80.165 Y45.868
G1 X80.579 Y45.041
G1 X77.686 Y42.149
G1 X78.099 Y40.909
G1 X77.686 Y40.083
G1 X73.967 Y37.603
G1 X72.727 Y36.777
G1 X71.074 Y38.017
G1 X68.595 Y35.950
G1 X68.595 Y31.405
G1 X69.008 Y32.231
G1 X69.008 Y35.950
G1 X71.488 Y34.298
G1 X70.661 Y33.471
G1 X70.661 Y32.645
G1 X69.008 Y28.926
G1 X68.595 Y26.033
G1 X69.421 Y25.620
G1 X69.835 Y24.380
G1 X70.661 Y23.554
G1 X71.901 Y23.140
G1 X72.727 Y20.661
G1 X71.901 Y21.488
G1 X71.074 Y19.835
G1 X69.835 Y17.355
G1 X70.661 Y18.182
G1 X70.248 Y19.421
G1 X69.421 Y20.248
G1 X69.835 Y18.595
G1 X69.421 Y19.421
G1 X66.116 Y22.727
G1 X66.116 Y23.967
G1 X68.182 Y21.901
G1 X67.355 Y21.901
G1 X66.529 Y21.074
G1 X66.942 Y24.793
G1 X67.355 Y26.033
G1 X67.769 Y27.686
G1 X68.182 Y30.992
G1 X68.182 Y35.537
G1 X66.942 Y28.512
G1 X67.769 Y30.165
G1 X67.769 Y31.405
G1 X64.050 Y23.967
G1 X60.744 Y23.967
G1 X59.091 Y25.620
G1 X60.744 Y26.860
G1 X61.157 Y28.926
G1 X61.983 Y27.273
G1 X61.570 Y26.033
G1 X61.157 Y18.182
G1 X63.636 Y19.008
G1 X62.810 Y21.488
G1 X50.413 Y16.942
G1 X50.000 Y18.595
G1 X51.240 Y18.595
G1 X50.413 Y18.182
G1 X47.107 Y17.355
G1 X46.281 Y16.116
G1 X44.215 Y19.835
G1 X42.562 Y19.835
G1 X40.496 Y19.008
G1 X34.711 Y15.289
G1 X35.950 Y15.702
G1 X35.124 Y14.463
G1 X36.777 Y14.050
G1 X35.950 Y12.397
G1 X38.843 Y11.570
G1 X35.537 Y11.983
G1 X34.298 Y8.264
G1 X33.471 Y8.678
G1 X33.058 Y7.851
G1 X32.645 Y6.198
G1 X35.537 Y5.372
G1 X33.884 Y6.612
G1 X29.752 Y7.025
G1 X30.165 Y4.132
G1 X28.926 Y2.479
G1 X28.512 Y3.719
G1 X29.339 Y4.132
G1 X29.752 Y5.372
G1 X30.579 Y6.612
G1 X30.579 Y4.959
G1 X30.579 Y3.306
G1 X35.124 Y1.653
G1 X34.298 Y2.479
G1 X35.537 Y4.545
G1 X36.777 Y2.479
G1 X32.645 Y4.959
G1 X34.298 Y4.959
G1 X32.231 Y2.479
G1 X32.645 Y1.653
G1 X34.298 Y1.653
G1 X32.645 Y3.719
G1 X33.471 Y4.545
G1 X32.645 Y5.372
G1 X34.711 Y5.372
G1 X35.124 Y3.306
G1 X35.950 Y2.479
G1 X35.537 Y3.306
G1 X34.298 Y2.066
G1 X36.777 Y2.066
G1 X38.843 Y2.479
G1 X37.190 Y3.719
G1 X32.645 Y3.306
G1 X30.992 Y2.066
G1 X31.818 Y1.653
G1 X27.273 Y11.157
G1 X28.512 Y11.570
G1 X28.926 Y10.744
G1 X23.554 Y7.025
G1 X25.620 Y7.438
G1 X27.273 Y8.264
G1 X27.686 Y5.372
G1 X30.579 Y.826
G1 X29.752 Y1.240
G1 X29.339 Y2.066
G1 X29.752 Y2.893
G1 X33.884 Y1.653
G1 X33.471 Y.826
G1 X35.124 Y.826
G1 X32.645 Y3.719
G1 X31.405 Y4.132
G1 X32.231 Y5.372
G1 X45.041 Y8.678
G1 X52.066 Y7.851
G1 X54.545 Y11.570
G1 X53.306 Y6.612
G0 Z1

G0 X53.719 Y5.785
G1 Z0

G1 X58.264 Y7.025
G1 X57.438 Y5.785
G1 X57.438 Y7.438
G1 X58.678 Y7.438
G1 X59.504 Y7.025
G1 X59.917 Y5.785
G1 X59.917 Y1.653
G1 X58.678 Y1.653
G1 X58.678 Y4.545
G1 X52.066 Y4.132
G1 X47.521 Y4.959
G1 X45.868 Y4.545
G1 X39.256 Y1.240
G1 X38.430 Y5.785
G1 X36.777 Y6.612
G1 X35.124 Y8.264
G1 X30.992 Y11.570
G1 X28.099 Y15.702
G1 X28.512 Y13.223
G1 X28.512 Y4.132
G1 X27.686 Y7.438
G1 X27.273 Y8.264
G1 X26.860 Y12.397
G1 X28.099 Y13.223
G1 X27.686 Y14.463
G1 X27.686 Y10.744
G1 X27.686 Y8.678
G1 X26.860 Y10.331
G1 X30.992 Y8.264
G1 X28.926 Y7.851
G1 X28.926 Y6.612
G1 X29.339 Y5.372
G1 X27.686 Y6.198
G1 X28.099 Y7.025
G1 X31.818 Y7.851
G1 X30.992 Y7.438
G1 X30.992 Y5.372
G1 X31.405 Y4.545
G1 X32.231 Y6.198
G1 X31.405 Y6.612
G1 X40.083 Y11.570
G1 X40.083 Y7.851
G1 X38.430 Y7.851
G1 X37.603 Y7.025
G1 X37.190 Y7.851
G1 X36.364 Y8.264
G1 X36.364 Y7.438
G1 X38.017 Y5.372
G1 X36.777 Y5.785
G1 X35.537 Y4.959
G1 X36.364 Y4.545
G1 X35.950 Y7.025
G1 X35.124 Y6.612
G1 X35.537 Y13.223
G1 X37.603 Y10.331
G1 X36.777 Y9.917
G1 X37.603 Y10.744
G1 X38.430 Y11.157
G1 X36.364 Y13.223
G1 X40.496 Y21.074
G1 X39.256 Y21.074
G1 X38.430 Y20.248
G1 X36.777 Y20.248
G1 X32.645 Y17.355
G1 X32.645 Y18.595
G1 X31.818 Y18.595
G1 X29.752 Y20.248
G1 X29.339 Y21.074
G1 X29.339 Y22.727
G1 X29.339 Y26.860
G1 X26.446 Y29.752
G1 X28.099 Y30.579
G1 X26.033 Y28.512
G1 X27.273 Y28.512
G1 X30.165 Y30.579
G1 X30.579 Y29.752
G1 X29.752 Y28.926
G1 X31.818 Y28.512
G1 X30.992 Y26.860
G1 X31.405 Y25.207
G1 X33.884 Y31.818
G1 X35.950 Y30.579
G1 X36.364 Y31.405
G1 X35.950 Y33.058
G1 X35.124 Y33.471
G1 X38.017 Y36.364
G1 X37.603 Y35.124
G1 X36.777 Y35.950
G1 X36.364 Y37.190
G1 X42.149 Y37.190
G1 X46.281 Y34.711
G1 X44.628 Y34.298
G1 X45.455 Y33.058
G1 X45.041 Y29.752
G1 X44.215 Y29.752
G1 X43.802 Y28.512
G1 X44.628 Y28.512
G1 X45.455 Y27.273
G1 X45.455 Y25.620
G1 X42.149 Y24.793
G1 X45.041 Y23.140
G1 X42.562 Y23.554
G1 X41.322 Y21.901
G1 X40.496 Y22.314
G1 X39.256 Y23.140
G1 X40.083 Y24.380
G1 X40.909 Y26.033
G1 X42.562 Y25.620
G1 X43.388 Y26.033
G1 X43.388 Y29.752
G1 X47.934 Y32.231
G1 X52.893 Y35.537
G1 X55.372 Y35.950
G1 X53.306 Y34.711
G1 X52.479 Y35.537
G1 X51.240 Y35.124
G1 X48.760 Y33.058
G1 X47.934 Y33.058
G1 X48.760 Y33.471
G1 X50.000 Y33.058
G1 X53.306 Y35.124
G1 X54.132 Y34.711
G1 X56.198 Y36.364
G1 X54.959 Y36.364
G1 X52.893 Y35.950
G1 X51.653 Y35.537
G1 X52.893 Y33.471
G1 X54.959 Y35.124
G1 X57.438 Y27.273
G1 X60.744 Y29.339
G1 X57.438 Y28.099
G1 X55.785 Y27.273
G1 X53.306 Y27.273
G1 X52.066 Y26.860
G1 X45.041 Y26.446
G1 X43.388 Y27.273
G1 X43.802 Y26.446
G1 X53.719 Y26.446
G1 X59.917 Y30.165
G1 X71.488 Y21.901
G1 X69.421 Y28.099
G1 X71.488 Y33.058
G1 X69.421 Y23.967
G1 X68.182 Y26.033
G1 X64.876 Y16.116
G1 X65.289 Y23.554
G1 X71.488 Y13.636
G1 X71.074 Y18.182
G1 X72.727 Y19.008
G1 X74.380 Y23.140
G1 X74.380 Y25.207
G1 X66.529 Y14.876
G1 X64.876 Y11.983
G1 X64.876 Y13.636
G1 X65.702 Y12.810
G1 X66.529 Y13.223
G1 X68.182 Y11.157
G1 X68.595 Y11.983
G1 X69.008 Y14.050
G1 X70.661 Y15.702
G1 X67.769 Y9.091
G1 X65.289 Y11.157
G1 X65.702 Y11.983
G1 X65.702 Y14.050
G1 X66.529 Y16.116
G1 X65.702 Y14.876
G1 X63.636 Y13.636
G1 X62.397 Y14.876
G1 X61.157 Y14.050
G1 X59.504 Y12.810
G1 X59.504 Y11.983
G1 X58.678 Y11.570
G1 X56.612 Y13.223
G1 X55.785 Y13.636
G1 X52.066 Y18.595
G1 X50.826 Y18.182
G1 X50.000 Y20.661
G1 X48.347 Y20.248
G1 X48.760 Y21.074
G1 X50.826 Y21.074
G1 X53.306 Y17.769
G1 X55.372 Y19.421
G1 X54.132 Y16.116
G1 X57.851 Y16.942
G1 X56.612 Y17.769
G1 X55.785 Y16.942
G1 X54.959 Y17.355
G1 X56.612 Y16.116
G1 X55.372 Y15.702
G1 X54.545 Y15.702
G1 X53.719 Y15.289
G1 X50.000 Y11.157
G1 X50.826 Y11.157
G1 X46.694 Y13.223
G1 X44.215 Y11.983
G1 X47.521 Y11.983
G1 X46.281 Y13.223
G1 X43.388 Y14.463
G1 X43.388 Y13.636
G1 X44.215 Y14.463
G1 X45.455 Y15.289
G1 X46.694 Y18.595
G1 X48.347 Y16.942
G1 X46.694 Y16.942
G1 X47.107 Y17.769
G1 X47.934 Y18.182
G1 X47.521 Y19.421
G1 X45.041 Y21.488
G1 X46.281 Y28.512
G1 X42.562 Y26.033
G1 X40.496 Y30.579
G1 X39.256 Y29.339
G1 X39.256 Y27.686
G1 X40.909 Y28.099
G1 X41.736 Y27.273
G1 X38.430 Y27.273
G1 X38.017 Y30.165
G1 X39.669 Y30.165
G1 X40.496 Y29.339
G1 X33.058 Y27.273
G1 X35.537 Y26.446
G1 X36.364 Y24.793
G1 X35.124 Y25.620
G1 X38.430 Y24.793
G1 X37.603 Y24.380
G1 X38.430 Y23.967
G1 X37.603 Y26.033
G1 X35.124 Y27.273
G1 X35.950 Y26.446
G1 X34.711 Y27.273
G1 X33.058 Y24.380
G1 X32.645 Y26.033
G1 X33.471 Y26.033
G1 X33.058 Y25.207
